;FLAVOR:Marlin
;TIME:3191
;Filament used: 1.11276m
;Layer height: 0.15
;MINX:72.71
;MINY:78.206
;MINZ:0.3
;MAXX:127.378
;MAXY:122.866
;MAXZ:33
;Generated with Cura_SteamEngine 4.13.1
M140 S60
M105
M190 S60
M104 S200
M105
M109 S200
M82 ;absolute extrusion mode
G21 ;metric values
 G90 ;absolute positioning
 M82 ;set extruder to absolute mode
 M107 ;start with the fan off
 G28 X0 Y0 ;move X/Y to min endstops
 G28 Z0 ;move Z to min endstops
 G1 Z15.0 F120 ;move the platform down 15mm
 G92 E0 ;zero the extruded length
 G1 F200 E6 ;extrude 6 mm of feed stock
 G92 E0 ;zero the extruded length again
 G1 F120 
 ;Put printing message on LCD screen
 M117 Printing...
G92 E0
G92 E0
G1 F1500 E-6.5
;LAYER_COUNT:219
;LAYER:0
M107
G0 F3600 X83.855 Y80.88 Z0.3
;TYPE:SKIRT
G1 F1500 E0
G1 F3000 X84.317 Y80.412 E0.03281
G1 X84.911 Y79.891 E0.07223
G1 X85.554 Y79.433 E0.11161
G1 X86.24 Y79.042 E0.15101
G1 X86.962 Y78.723 E0.19039
G1 X87.713 Y78.478 E0.2298
G1 X88.485 Y78.311 E0.2692
G1 X89.269 Y78.222 E0.30857
G1 X90.202 Y78.206 E0.35512
G1 X90.991 Y78.244 E0.39453
G1 X91.772 Y78.362 E0.43394
G1 X92.537 Y78.558 E0.47334
G1 X93.278 Y78.831 E0.51274
G1 X93.988 Y79.177 E0.55214
G1 X94.659 Y79.593 E0.59153
G1 X95.285 Y80.075 E0.63094
G1 X95.812 Y80.569 E0.66698
G1 X95.952 Y80.713 E0.677
G1 X96.473 Y81.306 E0.71638
G1 X96.931 Y81.949 E0.75577
G1 X97.322 Y82.635 E0.79516
G1 X97.642 Y83.357 E0.83456
G1 X97.887 Y84.108 E0.87397
G1 X98.055 Y84.88 E0.91339
G1 X98.155 Y85.905 E0.96477
G1 X98.201 Y87.368 E1.03779
G1 X98.205 Y87.613 E1.05002
G1 X98.205 Y89.341 E1.13623
G1 X98.21 Y89.667 E1.1525
G1 X98.192 Y90.177 E1.17796
G1 X98.677 Y90.177 E1.20215
G1 X101.777 Y90.273 E1.35689
G1 X102.04 Y90.273 E1.37001
G1 X102.508 Y89.947 E1.39846
G1 X103.199 Y89.563 E1.4379
G1 X103.924 Y89.251 E1.47728
G1 X104.677 Y89.014 E1.51666
G1 X105.451 Y88.855 E1.55608
G1 X106.148 Y88.779 E1.59106
G1 X107.624 Y88.686 E1.66485
G1 X108.24 Y88.671 E1.69559
G1 X108.486 Y88.675 E1.70786
G1 X109.087 Y88.694 E1.73786
G1 X109.793 Y88.748 E1.77319
G1 X110.525 Y88.838 E1.80998
G1 X111.303 Y88.974 E1.84939
G1 X112.063 Y89.188 E1.88878
G1 X112.798 Y89.478 E1.9282
G1 X113.499 Y89.84 E1.96756
G1 X114.161 Y90.272 E2.007
G1 X114.726 Y90.729 E2.04325
G1 X115.39 Y90.502 E2.07826
G1 X116.159 Y90.323 E2.11765
G1 X116.943 Y90.223 E2.15708
G1 X117.538 Y90.2 E2.18679
G1 X119.461 Y90.2 E2.28273
G1 X120.25 Y90.24 E2.32214
G1 X121.03 Y90.359 E2.36151
G1 X121.795 Y90.557 E2.40093
G1 X122.535 Y90.831 E2.4403
G1 X123.244 Y91.179 E2.4797
G1 X123.915 Y91.597 E2.51914
G1 X124.539 Y92.08 E2.55851
G1 X124.976 Y92.485 E2.58824
G1 X125.093 Y92.602 E2.59649
G1 X125.623 Y93.188 E2.63591
G1 X126.09 Y93.824 E2.67528
G1 X126.491 Y94.504 E2.71466
G1 X126.821 Y95.222 E2.75408
G1 X127.076 Y95.969 E2.79346
G1 X127.255 Y96.738 E2.83285
G1 X127.355 Y97.522 E2.87229
G1 X127.378 Y98.117 E2.90199
G1 X127.378 Y99.883 E2.9901
G1 X127.338 Y100.672 E3.02951
G1 X127.219 Y101.452 E3.06888
G1 X127.021 Y102.217 E3.1083
G1 X126.747 Y102.957 E3.14767
G1 X126.399 Y103.666 E3.18707
G1 X125.981 Y104.337 E3.22651
G1 X125.498 Y104.961 E3.26588
G1 X125.093 Y105.398 E3.29561
G1 X124.976 Y105.515 E3.30386
G1 X124.39 Y106.045 E3.34328
G1 X123.754 Y106.512 E3.38265
G1 X123.074 Y106.913 E3.42203
G1 X122.356 Y107.243 E3.46145
G1 X121.609 Y107.498 E3.50083
G1 X120.84 Y107.677 E3.54022
G1 X120.056 Y107.777 E3.57966
G1 X119.461 Y107.8 E3.60936
G1 X117.539 Y107.8 E3.70525
G1 X116.75 Y107.76 E3.74467
G1 X115.97 Y107.641 E3.78403
G1 X115.205 Y107.443 E3.82345
G1 X114.699 Y107.256 E3.85037
G1 X114.251 Y107.629 E3.87945
G1 X113.596 Y108.071 E3.91887
G1 X112.9 Y108.444 E3.95827
G1 X112.17 Y108.745 E3.99766
G1 X111.114 Y109.037 E4.05232
G1 X110.946 Y109.071 E4.06088
G1 X110.452 Y109.155 E4.08588
G1 X109.975 Y109.22 E4.10989
G1 X109.176 Y109.287 E4.14989
G1 X107.947 Y109.327 E4.21124
G1 X107.157 Y109.313 E4.25066
G1 X107.022 Y109.296 E4.25745
G1 X106.218 Y109.726 E4.30294
G1 X105.504 Y110.063 E4.34233
G1 X104.76 Y110.326 E4.3817
G1 X103.992 Y110.512 E4.42112
G1 X103.21 Y110.62 E4.46051
G1 X102.421 Y110.648 E4.49989
G1 X101.633 Y110.596 E4.53929
G1 X100.854 Y110.465 E4.5787
G1 X100.093 Y110.256 E4.61807
G1 X99.356 Y109.971 E4.6575
G1 X98.832 Y109.705 E4.68682
G1 X98.963 Y110.342 E4.71926
G1 X99.046 Y111.179 E4.76122
G1 X99.205 Y114.716 E4.93786
G1 X99.201 Y115.505 E4.97723
G1 X99.116 Y116.291 E5.01667
G1 X98.953 Y117.063 E5.05603
G1 X98.712 Y117.815 E5.09543
G1 X98.397 Y118.539 E5.13482
G1 X98.01 Y119.228 E5.17425
G1 X97.555 Y119.873 E5.21363
G1 X97.038 Y120.47 E5.25303
G1 X96.463 Y121.011 E5.29242
G1 X95.836 Y121.491 E5.33181
G1 X95.163 Y121.905 E5.37123
G1 X94.453 Y122.249 E5.41059
G1 X93.711 Y122.52 E5.45
G1 X92.945 Y122.714 E5.48943
G1 X92.164 Y122.83 E5.52882
G1 X91.413 Y122.866 E5.56633
G1 X88.587 Y122.866 E5.70732
G1 X87.798 Y122.826 E5.74673
G1 X87.018 Y122.707 E5.7861
G1 X86.253 Y122.509 E5.82552
G1 X85.513 Y122.235 E5.86489
G1 X84.804 Y121.887 E5.90429
G1 X84.133 Y121.469 E5.94373
G1 X83.509 Y120.986 E5.9831
G1 X82.936 Y120.443 E6.02248
G1 X82.421 Y119.844 E6.06189
G1 X81.97 Y119.196 E6.10128
G1 X81.586 Y118.505 E6.14072
G1 X81.274 Y117.78 E6.1801
G1 X81.037 Y117.027 E6.21948
G1 X80.878 Y116.253 E6.25891
G1 X80.797 Y115.468 E6.29828
G1 X80.795 Y114.716 E6.33579
G1 X80.954 Y111.179 E6.51243
G1 X81.029 Y110.393 E6.55183
G1 X81.184 Y109.618 E6.59126
G1 X81.416 Y108.863 E6.63066
G1 X81.723 Y108.136 E6.67003
G1 X81.804 Y107.988 E6.67845
G1 X81.793 Y107.8 E6.68785
G1 X80.916 Y107.8 E6.7316
G1 X80.127 Y107.76 E6.77101
G1 X79.347 Y107.641 E6.81038
G1 X78.582 Y107.443 E6.8498
G1 X77.842 Y107.169 E6.88917
G1 X77.133 Y106.821 E6.92857
G1 X76.462 Y106.403 E6.96801
G1 X75.838 Y105.92 E7.00738
G1 X75.401 Y105.515 E7.03711
G1 X75.284 Y105.398 E7.04536
G1 X74.754 Y104.812 E7.08478
G1 X74.287 Y104.176 E7.12415
G1 X73.886 Y103.496 E7.16353
G1 X73.556 Y102.778 E7.20296
G1 X73.301 Y102.031 E7.24234
G1 X73.122 Y101.262 E7.28173
G1 X73.022 Y100.478 E7.32116
G1 X72.999 Y99.887 E7.35067
G1 X72.998 Y98.121 E7.43877
G1 X73.038 Y97.333 E7.47814
G1 X73.157 Y96.552 E7.51755
G1 X73.354 Y95.787 E7.55696
G1 X73.628 Y95.047 E7.59633
G1 X73.975 Y94.337 E7.63575
G1 X74.392 Y93.667 E7.67513
G1 X74.875 Y93.042 E7.71453
G1 X75.283 Y92.602 E7.74447
G1 X75.4 Y92.485 E7.75273
G1 X75.986 Y91.955 E7.79215
G1 X76.622 Y91.488 E7.83151
G1 X77.302 Y91.087 E7.8709
G1 X78.02 Y90.757 E7.91032
G1 X78.767 Y90.502 E7.9497
G1 X79.536 Y90.323 E7.98909
G1 X80.32 Y90.223 E8.02852
G1 X80.915 Y90.2 E8.05823
G1 X81.814 Y90.2 E8.10308
G1 X81.788 Y89.772 E8.12447
G1 X81.795 Y88.03 E8.21138
G1 X81.795 Y86.681 E8.27868
G1 X81.799 Y86.435 E8.29096
G1 X81.816 Y85.897 E8.31781
G1 X81.881 Y85.11 E8.35721
G1 X82.025 Y84.333 E8.39663
G1 X82.247 Y83.575 E8.43604
G1 X82.544 Y82.844 E8.4754
G1 X82.914 Y82.146 E8.51482
G1 X83.352 Y81.489 E8.55421
G1 X83.855 Y80.88 E8.59362
G0 F3600 X84.456 Y80.835
G1 F3000 X84.596 Y80.699 E8.60336
G1 X85.175 Y80.193 E8.64172
G1 X85.803 Y79.749 E8.68009
G1 X86.474 Y79.373 E8.71846
G1 X87.18 Y79.068 E8.75683
G1 X87.914 Y78.839 E8.79519
G1 X88.668 Y78.687 E8.83357
G1 X89.736 Y78.607 E8.887
G1 X90.203 Y78.606 E8.9103
G1 X90.971 Y78.644 E8.94866
G1 X91.731 Y78.762 E8.98703
G1 X92.475 Y78.958 E9.02541
G1 X93.195 Y79.231 E9.06383
G1 X93.882 Y79.576 E9.10219
G1 X94.529 Y79.991 E9.14053
G1 X95.13 Y80.471 E9.17891
G1 X95.525 Y80.848 E9.20615
G1 X95.665 Y80.992 E9.21617
G1 X96.172 Y81.57 E9.25453
G1 X96.616 Y82.198 E9.2929
G1 X96.992 Y82.869 E9.33127
G1 X97.297 Y83.575 E9.36964
G1 X97.526 Y84.309 E9.408
G1 X97.679 Y85.063 E9.44638
G1 X97.755 Y85.917 E9.48916
G1 X97.801 Y87.38 E9.56218
G1 X97.805 Y87.613 E9.57381
G1 X97.805 Y89.341 E9.66002
G1 X97.81 Y89.673 E9.67659
G1 X97.782 Y90.442 E9.71498
G1 X97.761 Y90.589 E9.72239
G1 X98.665 Y90.577 E9.76749
G1 X101.765 Y90.673 E9.92222
G1 X102.167 Y90.674 E9.94228
G1 X102.249 Y90.606 E9.94759
G1 X102.891 Y90.183 E9.98595
G1 X103.574 Y89.828 E10.02435
G1 X104.289 Y89.547 E10.06268
G1 X105.031 Y89.341 E10.1011
G1 X105.789 Y89.213 E10.13945
G1 X106.173 Y89.179 E10.15869
G1 X107.649 Y89.086 E10.23247
G1 X108.24 Y89.071 E10.26196
G1 X108.474 Y89.075 E10.27364
G1 X109.075 Y89.094 E10.30364
G1 X109.744 Y89.145 E10.33711
G1 X110.476 Y89.235 E10.37391
G1 X111.234 Y89.369 E10.41231
G1 X111.973 Y89.58 E10.45065
G1 X112.687 Y89.867 E10.48904
G1 X113.367 Y90.226 E10.52741
G1 X114.006 Y90.655 E10.5658
G1 X114.597 Y91.147 E10.60417
G1 X114.646 Y91.198 E10.6077
G1 X114.866 Y91.099 E10.61973
G1 X115.597 Y90.859 E10.65812
G1 X116.348 Y90.696 E10.69646
G1 X117.113 Y90.612 E10.73485
G1 X117.538 Y90.6 E10.75607
G1 X119.461 Y90.6 E10.85201
G1 X120.229 Y90.64 E10.89037
G1 X120.989 Y90.759 E10.92875
G1 X121.732 Y90.957 E10.96711
G1 X122.451 Y91.231 E11.0055
G1 X123.137 Y91.578 E11.04386
G1 X123.784 Y91.994 E11.08223
G1 X124.384 Y92.475 E11.1206
G1 X124.811 Y92.884 E11.1501
G1 X125.325 Y93.456 E11.18846
G1 X125.778 Y94.078 E11.22685
G1 X126.164 Y94.743 E11.26521
G1 X126.479 Y95.445 E11.3036
G1 X126.719 Y96.176 E11.34198
G1 X126.882 Y96.927 E11.38032
G1 X126.966 Y97.692 E11.41872
G1 X126.978 Y98.117 E11.43993
G1 X126.978 Y99.883 E11.52804
G1 X126.938 Y100.651 E11.5664
G1 X126.819 Y101.411 E11.60478
G1 X126.621 Y102.154 E11.64315
G1 X126.347 Y102.873 E11.68153
G1 X126 Y103.559 E11.71989
G1 X125.584 Y104.206 E11.75826
G1 X125.103 Y104.806 E11.79663
G1 X124.694 Y105.233 E11.82613
G1 X124.122 Y105.747 E11.86449
G1 X123.5 Y106.2 E11.90288
G1 X122.835 Y106.586 E11.94124
G1 X122.133 Y106.901 E11.97963
G1 X121.402 Y107.141 E12.01802
G1 X120.651 Y107.304 E12.05636
G1 X119.886 Y107.388 E12.09475
G1 X119.461 Y107.4 E12.11596
G1 X117.539 Y107.4 E12.21185
G1 X116.771 Y107.36 E12.25022
G1 X116.011 Y107.241 E12.2886
G1 X115.268 Y107.043 E12.32696
G1 X114.612 Y106.793 E12.36198
G1 X114.437 Y106.963 E12.37416
G1 X113.833 Y107.439 E12.41252
G1 X113.182 Y107.849 E12.45091
G1 X112.492 Y108.189 E12.48928
G1 X111.771 Y108.456 E12.52764
G1 X111.035 Y108.645 E12.56555
G1 X110.398 Y108.758 E12.59783
G1 X109.921 Y108.823 E12.62184
G1 X109.163 Y108.887 E12.6598
G1 X107.934 Y108.927 E12.72114
G1 X107.165 Y108.912 E12.75952
G1 X106.944 Y108.884 E12.77063
G1 X106.03 Y109.373 E12.82235
G1 X105.334 Y109.7 E12.86071
G1 X104.607 Y109.953 E12.89911
G1 X103.859 Y110.13 E12.93746
G1 X103.096 Y110.228 E12.97584
G1 X102.327 Y110.246 E13.01422
G1 X101.56 Y110.184 E13.05261
G1 X100.804 Y110.043 E13.09098
G1 X100.067 Y109.824 E13.12933
G1 X99.356 Y109.53 E13.16772
G1 X98.68 Y109.164 E13.20607
G1 X98.112 Y108.776 E13.24039
G1 X98.271 Y109.18 E13.26205
G1 X98.477 Y109.922 E13.30047
G1 X98.605 Y110.68 E13.33882
G1 X98.647 Y111.197 E13.3647
G1 X98.806 Y114.734 E13.54134
G1 X98.8 Y115.503 E13.5797
G1 X98.715 Y116.267 E13.61806
G1 X98.551 Y117.019 E13.65646
G1 X98.309 Y117.749 E13.69482
G1 X97.994 Y118.45 E13.73317
G1 X97.607 Y119.115 E13.77155
G1 X97.153 Y119.736 E13.80993
G1 X96.637 Y120.307 E13.84833
G1 X96.065 Y120.821 E13.88669
G1 X95.443 Y121.273 E13.92505
G1 X94.777 Y121.657 E13.96341
G1 X94.074 Y121.971 E14.00182
G1 X93.343 Y122.21 E14.04019
G1 X92.591 Y122.372 E14.07857
G1 X91.827 Y122.454 E14.1169
G1 X91.413 Y122.466 E14.13756
G1 X88.587 Y122.466 E14.27855
G1 X87.819 Y122.426 E14.31692
G1 X87.059 Y122.307 E14.3553
G1 X86.316 Y122.109 E14.39366
G1 X85.597 Y121.835 E14.43205
G1 X84.911 Y121.488 E14.4704
G1 X84.264 Y121.072 E14.50878
G1 X83.664 Y120.591 E14.54715
G1 X83.117 Y120.05 E14.58553
G1 X82.629 Y119.455 E14.62392
G1 X82.206 Y118.813 E14.66228
G1 X81.851 Y118.13 E14.70068
G1 X81.57 Y117.415 E14.73901
G1 X81.364 Y116.673 E14.77743
G1 X81.236 Y115.915 E14.81578
G1 X81.187 Y115.147 E14.85417
G1 X81.194 Y114.734 E14.87478
G1 X81.353 Y111.197 E15.05142
G1 X81.428 Y110.431 E15.08982
G1 X81.581 Y109.677 E15.1282
G1 X81.812 Y108.944 E15.16654
G1 X82.118 Y108.238 E15.20493
G1 X82.208 Y108.078 E15.21409
G1 X82.19 Y107.4 E15.24793
G1 X80.916 Y107.4 E15.31149
G1 X80.148 Y107.36 E15.34986
G1 X79.388 Y107.241 E15.38823
G1 X78.645 Y107.043 E15.4266
G1 X77.926 Y106.769 E15.46498
G1 X77.24 Y106.422 E15.50334
G1 X76.593 Y106.006 E15.54171
G1 X75.993 Y105.525 E15.58008
G1 X75.566 Y105.116 E15.60958
G1 X75.052 Y104.544 E15.64794
G1 X74.599 Y103.922 E15.68633
G1 X74.213 Y103.257 E15.7247
G1 X73.898 Y102.555 E15.76308
G1 X73.658 Y101.824 E15.80147
G1 X73.495 Y101.073 E15.83981
G1 X73.411 Y100.308 E15.8782
G1 X73.399 Y99.887 E15.89921
G1 X73.398 Y98.121 E15.98732
G1 X73.438 Y97.353 E16.02569
G1 X73.557 Y96.593 E16.06407
G1 X73.754 Y95.85 E16.10242
G1 X74.027 Y95.131 E16.14079
G1 X74.374 Y94.444 E16.17918
G1 X74.79 Y93.797 E16.21756
G1 X75.271 Y93.197 E16.25593
G1 X75.682 Y92.767 E16.2856
G1 X76.254 Y92.253 E16.32397
G1 X76.876 Y91.8 E16.36236
G1 X77.541 Y91.414 E16.40072
G1 X78.243 Y91.099 E16.43911
G1 X78.974 Y90.859 E16.47749
G1 X79.725 Y90.696 E16.51583
G1 X80.49 Y90.612 E16.55423
G1 X80.915 Y90.6 E16.57544
G1 X82.235 Y90.6 E16.64129
G1 X82.188 Y89.773 E16.68262
G1 X82.195 Y88.031 E16.76953
G1 X82.195 Y86.681 E16.83688
G1 X82.199 Y86.447 E16.84856
G1 X82.216 Y85.909 E16.87541
G1 X82.28 Y85.143 E16.91376
G1 X82.423 Y84.387 E16.95214
G1 X82.644 Y83.65 E16.99053
G1 X82.941 Y82.941 E17.02888
G1 X83.309 Y82.266 E17.06724
G1 X83.746 Y81.632 E17.10565
G1 X84.456 Y80.835 E17.15891
G0 F3600 X84.735 Y81.122
G1 F3000 X84.875 Y80.986 E17.16864
G1 X85.438 Y80.494 E17.20595
G1 X86.051 Y80.065 E17.24327
G1 X86.706 Y79.704 E17.28059
G1 X87.396 Y79.415 E17.31791
G1 X88.113 Y79.202 E17.35522
G1 X88.849 Y79.066 E17.39256
G1 X89.737 Y79.007 E17.43697
G1 X90.204 Y79.006 E17.46026
G1 X90.951 Y79.044 E17.49758
G1 X91.69 Y79.162 E17.53492
G1 X92.412 Y79.358 E17.57224
G1 X93.109 Y79.63 E17.60957
G1 X93.772 Y79.975 E17.64686
G1 X94.396 Y80.389 E17.68422
G1 X95.238 Y81.126 E17.74004
G1 X95.378 Y81.27 E17.75006
G1 X95.87 Y81.834 E17.7874
G1 X96.299 Y82.447 E17.82473
G1 X96.66 Y83.102 E17.86204
G1 X96.95 Y83.792 E17.89938
G1 X97.164 Y84.508 E17.93667
G1 X97.3 Y85.244 E17.97401
G1 X97.356 Y85.93 E18.00835
G1 X97.402 Y87.393 E18.08137
G1 X97.405 Y87.613 E18.09235
G1 X97.405 Y89.354 E18.17921
G1 X97.41 Y89.68 E18.19547
G1 X97.382 Y90.427 E18.23277
G1 X97.302 Y90.976 E18.26045
G1 X97.303 Y91.003 E18.26179
G1 X98.236 Y90.976 E18.30836
G1 X98.653 Y90.976 E18.32917
G1 X101.785 Y91.073 E18.4855
G1 X102.304 Y91.079 E18.51139
G1 X102.636 Y90.821 E18.53237
G1 X103.272 Y90.426 E18.56972
G1 X103.946 Y90.102 E18.60703
G1 X104.651 Y89.852 E18.64435
G1 X105.379 Y89.678 E18.68169
G1 X106.198 Y89.578 E18.72285
G1 X107.674 Y89.485 E18.79664
G1 X108.24 Y89.471 E18.82488
G1 X108.461 Y89.474 E18.83591
G1 X109.062 Y89.493 E18.86591
G1 X109.695 Y89.542 E18.89759
G1 X110.427 Y89.632 E18.93438
G1 X111.164 Y89.763 E18.97173
G1 X111.882 Y89.972 E19.00903
G1 X112.574 Y90.256 E19.04635
G1 X113.232 Y90.612 E19.08368
G1 X113.848 Y91.037 E19.12101
G1 X114.415 Y91.525 E19.15834
G1 X114.556 Y91.675 E19.16861
G1 X115.087 Y91.443 E19.19752
G1 X115.801 Y91.219 E19.23485
G1 X116.534 Y91.072 E19.27215
G1 X117.538 Y91 E19.32237
G1 X119.461 Y91 E19.4183
G1 X120.208 Y91.04 E19.45563
G1 X120.946 Y91.159 E19.49292
G1 X121.668 Y91.357 E19.53027
G1 X122.364 Y91.63 E19.56757
G1 X123.027 Y91.977 E19.6049
G1 X123.65 Y92.392 E19.64225
G1 X124.411 Y93.05 E19.69244
G1 X124.528 Y93.167 E19.7007
G1 X125.028 Y93.724 E19.73804
G1 X125.465 Y94.33 E19.77531
G1 X125.836 Y94.98 E19.81265
G1 X126.135 Y95.666 E19.84999
G1 X126.359 Y96.38 E19.88732
G1 X126.506 Y97.113 E19.92462
G1 X126.578 Y98.117 E19.97484
G1 X126.578 Y99.883 E20.06294
G1 X126.538 Y100.63 E20.10026
G1 X126.419 Y101.368 E20.13756
G1 X126.221 Y102.09 E20.17491
G1 X125.948 Y102.786 E20.21221
G1 X125.601 Y103.449 E20.24954
G1 X125.186 Y104.072 E20.28689
G1 X124.528 Y104.833 E20.33708
G1 X124.411 Y104.95 E20.34533
G1 X123.854 Y105.45 E20.38268
G1 X123.248 Y105.887 E20.41995
G1 X122.598 Y106.258 E20.45729
G1 X121.912 Y106.557 E20.49462
G1 X121.198 Y106.781 E20.53196
G1 X120.465 Y106.928 E20.56926
G1 X119.461 Y107 E20.61947
G1 X117.539 Y107 E20.71536
G1 X116.792 Y106.96 E20.75268
G1 X116.054 Y106.841 E20.78998
G1 X115.332 Y106.643 E20.82733
G1 X114.636 Y106.37 E20.86463
G1 X114.537 Y106.318 E20.87021
G1 X114.018 Y106.795 E20.90538
