;FLAVOR:Marlin
;TIME:2135
;Filament used: 0.838719m
;Layer height: 0.15
;MINX:71.349
;MINY:81.569
;MINZ:0.3
;MAXX:128.279
;MAXY:118.426
;MAXZ:30.75
;Generated with Cura_SteamEngine 4.13.1
M140 S60
M105
M190 S60
M104 S200
M105
M109 S200
M82 ;absolute extrusion mode
G21 ;metric values
 G90 ;absolute positioning
 M82 ;set extruder to absolute mode
 M107 ;start with the fan off
 G28 X0 Y0 ;move X/Y to min endstops
 G28 Z0 ;move Z to min endstops
 G1 Z15.0 F120 ;move the platform down 15mm
 G92 E0 ;zero the extruded length
 G1 F200 E6 ;extrude 6 mm of feed stock
 G92 E0 ;zero the extruded length again
 G1 F120 
 ;Put printing message on LCD screen
 M117 Printing...
G92 E0
G92 E0
G1 F1500 E-6.5
;LAYER_COUNT:205
;LAYER:0
M107
G0 F3600 X74.87 Y94.633 Z0.3
;TYPE:SKIRT
G1 F1500 E0
G1 F3000 X75.801 Y93.955 E0.05746
G1 X76.462 Y93.523 E0.09685
G1 X77.164 Y93.16 E0.13628
G1 X77.898 Y92.87 E0.17566
G1 X78.394 Y92.73 E0.20137
G1 X79.462 Y92.061 E0.26424
G1 X80.151 Y91.676 E0.30362
G1 X80.876 Y91.363 E0.34302
G1 X81.629 Y91.125 E0.38242
G1 X82.402 Y90.965 E0.4218
G1 X82.837 Y90.916 E0.44364
G1 X83.568 Y90.617 E0.48304
G1 X84.326 Y90.394 E0.52246
G1 X84.439 Y90.373 E0.52819
G1 X86.518 Y88.535 E0.66664
G1 X87.136 Y88.042 E0.70608
G1 X87.8 Y87.615 E0.74546
G1 X88.504 Y87.257 E0.78487
G1 X89.48 Y86.897 E0.83677
G1 X90.379 Y86.632 E0.88353
G1 X91.36 Y86.244 E0.93616
G1 X92.165 Y85.66 E0.98578
G1 X92.826 Y85.229 E1.02514
G1 X93.528 Y84.867 E1.06455
G1 X94.263 Y84.578 E1.10395
G1 X95.024 Y84.365 E1.14338
G1 X95.879 Y84.221 E1.18663
G1 X98.402 Y83.939 E1.31329
G1 X99.199 Y83.891 E1.35312
G1 X101.018 Y83.875 E1.44388
G1 X101.807 Y83.908 E1.48328
G1 X102.589 Y84.021 E1.5227
G1 X103.614 Y84.296 E1.57564
G1 X104.927 Y84.746 E1.64489
G1 X105.171 Y84.758 E1.65708
G1 X105.951 Y84.877 E1.69644
G1 X106.716 Y85.075 E1.73586
G1 X107.456 Y85.349 E1.77523
G1 X108.165 Y85.697 E1.81464
G1 X108.971 Y86.211 E1.86233
G1 X110.175 Y87.086 E1.93658
G1 X110.937 Y87.293 E1.97598
G1 X111.674 Y87.577 E2.01538
G1 X112.616 Y88.075 E2.06854
G1 X115.068 Y89.595 E2.21247
G1 X115.97 Y90.248 E2.26803
G1 X117.922 Y91.885 E2.39512
G1 X118.501 Y92.423 E2.43456
G1 X119.022 Y93.016 E2.47394
G1 X119.198 Y93.263 E2.48907
G1 X119.481 Y93.301 E2.50331
G1 X120.27 Y93.341 E2.54273
G1 X121.05 Y93.46 E2.58209
G1 X121.815 Y93.658 E2.62152
G1 X122.555 Y93.932 E2.66088
G1 X123.264 Y94.28 E2.70029
G1 X124.07 Y94.794 E2.74798
G1 X125.028 Y95.491 E2.80709
G1 X125.642 Y95.987 E2.84647
G1 X126.203 Y96.543 E2.88587
G1 X126.705 Y97.153 E2.92528
G1 X127.142 Y97.81 E2.96465
G1 X127.511 Y98.508 E3.00404
G1 X127.808 Y99.24 E3.04345
G1 X128.029 Y99.998 E3.08284
G1 X128.172 Y100.775 E3.12226
G1 X128.229 Y101.408 E3.15397
G1 X128.233 Y101.488 E3.15796
G1 X128.233 Y102.278 E3.19738
G1 X128.152 Y103.064 E3.2368
G1 X127.993 Y103.837 E3.27617
G1 X127.756 Y104.591 E3.3156
G1 X127.444 Y105.316 E3.35498
G1 X127.132 Y105.878 E3.38705
G1 X127.444 Y106.439 E3.41907
G1 X127.756 Y107.164 E3.45845
G1 X127.993 Y107.917 E3.49784
G1 X128.152 Y108.691 E3.53726
G1 X128.241 Y109.465 E3.57613
G1 X128.279 Y110.254 E3.61554
G1 X128.238 Y111.042 E3.6549
G1 X128.117 Y111.823 E3.69433
G1 X127.917 Y112.587 E3.73373
G1 X127.642 Y113.327 E3.77312
G1 X127.293 Y114.035 E3.8125
G1 X126.874 Y114.705 E3.85192
G1 X126.39 Y115.329 E3.89132
G1 X125.845 Y115.9 E3.9307
G1 X125.245 Y116.414 E3.97012
G1 X124.596 Y116.864 E4.00952
G1 X123.905 Y117.246 E4.04891
G1 X123.179 Y117.557 E4.08831
G1 X122.425 Y117.792 E4.12772
G1 X121.985 Y117.892 E4.15023
G1 X120.024 Y118.278 E4.24994
G1 X119.243 Y118.391 E4.28931
G1 X118.518 Y118.425 E4.32552
G1 X118.482 Y118.425 E4.32732
G1 X117.693 Y118.385 E4.36673
G1 X116.976 Y118.278 E4.4029
G1 X115.015 Y117.892 E4.50261
G1 X114.248 Y117.701 E4.54204
G1 X113.506 Y117.433 E4.5814
G1 X112.794 Y117.091 E4.62081
G1 X112.12 Y116.679 E4.66022
G1 X111.491 Y116.201 E4.69963
G1 X110.914 Y115.662 E4.73903
G1 X110.395 Y115.067 E4.77842
G1 X109.938 Y114.423 E4.81782
G1 X109.549 Y113.736 E4.8572
G1 X109.231 Y113.013 E4.89661
G1 X108.988 Y112.262 E4.93599
G1 X108.822 Y111.49 E4.97538
G1 X108.735 Y110.705 E5.01479
G1 X108.728 Y109.97 E5.05146
G1 X108.686 Y109.95 E5.05378
G1 X108.01 Y109.543 E5.09315
G1 X107.377 Y109.07 E5.13257
G1 X106.797 Y108.535 E5.17194
G1 X106.517 Y108.227 E5.1927
G1 X105.956 Y107.671 E5.23211
G1 X105.454 Y107.061 E5.27152
G1 X105.179 Y106.662 E5.2957
G1 X104.719 Y106.273 E5.32575
G1 X104.309 Y106.238 E5.34628
G1 X103.526 Y106.131 E5.38571
G1 X102.432 Y105.839 E5.4422
G1 X102.381 Y105.821 E5.4449
G1 X101.961 Y106.067 E5.46918
G1 X101.26 Y106.43 E5.50857
G1 X100.526 Y106.721 E5.54796
G1 X99.766 Y106.936 E5.58736
G1 X98.988 Y107.073 E5.62677
G1 X98.027 Y107.132 E5.67481
G1 X97.162 Y107.132 E5.71796
G1 X97.022 Y107.449 E5.73525
G1 X96.667 Y108.154 E5.77463
G1 X96.243 Y108.82 E5.81402
G1 X95.754 Y109.44 E5.85342
G1 X95.204 Y110.007 E5.89283
G1 X94.6 Y110.516 E5.93223
G1 X93.948 Y110.961 E5.97162
G1 X93.253 Y111.337 E6.01104
G1 X92.525 Y111.642 E6.05042
G1 X91.809 Y111.859 E6.08774
G1 X91.799 Y111.918 E6.09073
G1 X91.591 Y112.68 E6.13014
G1 X91.306 Y113.416 E6.16951
G1 X90.949 Y114.12 E6.20889
G1 X90.522 Y114.785 E6.24832
G1 X90.031 Y115.403 E6.2877
G1 X89.479 Y115.968 E6.32711
G1 X88.873 Y116.474 E6.36649
G1 X88.219 Y116.917 E6.4059
G1 X87.523 Y117.291 E6.44532
G1 X86.794 Y117.592 E6.48467
G1 X86.037 Y117.819 E6.5241
G1 X85.54 Y117.924 E6.54944
G1 X83.376 Y118.307 E6.65908
G1 X82.593 Y118.405 E6.69845
G1 X81.983 Y118.426 E6.7289
G1 X81.194 Y118.386 E6.76832
G1 X80.624 Y118.307 E6.79703
G1 X78.46 Y117.924 E6.90667
G1 X77.69 Y117.747 E6.94608
G1 X76.942 Y117.493 E6.98549
G1 X76.224 Y117.165 E7.02488
G1 X75.542 Y116.766 E7.0643
G1 X74.905 Y116.3 E7.10367
G1 X74.317 Y115.772 E7.1431
G1 X73.787 Y115.188 E7.18244
G1 X73.318 Y114.552 E7.22187
G1 X72.915 Y113.873 E7.26126
G1 X72.583 Y113.156 E7.30068
G1 X72.326 Y112.41 E7.34005
G1 X72.145 Y111.641 E7.37946
G1 X72.043 Y110.858 E7.41885
G1 X72.021 Y110.069 E7.45823
G1 X72.049 Y109.562 E7.48357
G1 X72.081 Y109.197 E7.50185
G1 X72.19 Y108.415 E7.54124
G1 X72.377 Y107.647 E7.58067
G1 X72.641 Y106.903 E7.62006
G1 X72.839 Y106.483 E7.64322
G1 X72.613 Y106.173 E7.66236
G1 X72.216 Y105.49 E7.70178
G1 X71.889 Y104.771 E7.74118
G1 X71.637 Y104.023 E7.78056
G1 X71.462 Y103.253 E7.81996
G1 X71.366 Y102.469 E7.85936
G1 X71.349 Y101.679 E7.89879
G1 X71.413 Y100.892 E7.93818
G1 X71.555 Y100.116 E7.97754
G1 X71.727 Y99.502 E8.00935
G1 X72.043 Y98.529 E8.06039
G1 X72.325 Y97.791 E8.0998
G1 X72.68 Y97.085 E8.13923
G1 X73.104 Y96.419 E8.17862
G1 X73.594 Y95.8 E8.218
G1 X74.143 Y95.233 E8.25738
G1 X74.87 Y94.633 E8.30441
G0 F3600 X75.106 Y94.956
G1 F3000 X76.037 Y94.278 E8.36186
G1 X76.681 Y93.858 E8.40022
G1 X77.366 Y93.508 E8.4386
G1 X78.083 Y93.23 E8.47697
G1 X78.553 Y93.102 E8.50127
G1 X79.674 Y92.4 E8.56726
G1 X80.346 Y92.026 E8.60563
G1 X81.054 Y91.724 E8.64403
G1 X81.788 Y91.497 E8.68236
G1 X82.543 Y91.348 E8.72075
G1 X82.915 Y91.321 E8.73936
G1 X83.007 Y91.278 E8.74443
G1 X83.72 Y90.988 E8.78283
G1 X84.458 Y90.773 E8.82118
G1 X84.623 Y90.743 E8.82954
G1 X86.783 Y88.834 E8.97336
G1 X87.385 Y88.356 E9.01171
G1 X88.034 Y87.942 E9.05012
G1 X88.722 Y87.598 E9.08849
G1 X89.593 Y87.28 E9.13475
G1 X90.516 Y87.008 E9.18276
G1 X91.549 Y86.599 E9.23819
G1 X92.399 Y85.983 E9.29056
G1 X93.045 Y85.565 E9.32895
G1 X93.73 Y85.215 E9.36733
G1 X94.448 Y84.939 E9.4057
G1 X95.19 Y84.738 E9.44406
G1 X95.923 Y84.619 E9.4811
G1 X98.446 Y84.337 E9.60776
G1 X99.203 Y84.291 E9.6456
G1 X101.022 Y84.275 E9.73635
G1 X101.79 Y84.309 E9.7747
G1 X102.551 Y84.421 E9.81308
G1 X103.484 Y84.674 E9.86131
G1 X104.852 Y85.142 E9.93344
G1 X105.15 Y85.158 E9.94833
G1 X105.91 Y85.277 E9.98671
G1 X106.653 Y85.475 E10.02507
G1 X107.372 Y85.749 E10.06346
G1 X108.058 Y86.096 E10.10181
G1 X108.735 Y86.534 E10.14204
G1 X110.016 Y87.466 E10.22107
G1 X110.148 Y87.489 E10.22776
G1 X110.888 Y87.699 E10.26614
G1 X111.603 Y87.984 E10.30454
G1 X112.405 Y88.415 E10.34996
G1 X114.857 Y89.935 E10.49389
G1 X115.713 Y90.555 E10.54662
G1 X117.665 Y92.192 E10.67372
G1 X118.228 Y92.716 E10.71209
G1 X118.733 Y93.296 E10.75046
G1 X118.957 Y93.614 E10.76986
G1 X119.283 Y93.701 E10.7867
G1 X119.481 Y93.701 E10.79658
G1 X120.249 Y93.741 E10.83494
G1 X121.009 Y93.86 E10.87332
G1 X121.752 Y94.058 E10.91168
G1 X122.471 Y94.332 E10.95007
G1 X123.157 Y94.679 E10.98843
G1 X123.835 Y95.117 E11.0287
G1 X124.793 Y95.814 E11.0878
G1 X125.39 Y96.298 E11.12614
G1 X125.934 Y96.842 E11.16453
G1 X126.419 Y97.439 E11.2029
G1 X126.839 Y98.083 E11.24126
G1 X127.19 Y98.768 E11.27966
G1 X127.468 Y99.485 E11.31803
G1 X127.67 Y100.227 E11.35639
G1 X127.794 Y100.986 E11.39476
G1 X127.834 Y101.508 E11.42088
G1 X127.832 Y102.278 E11.45929
G1 X127.751 Y103.042 E11.49762
G1 X127.59 Y103.795 E11.53604
G1 X127.353 Y104.526 E11.57438
G1 X127.041 Y105.229 E11.61275
G1 X126.663 Y105.886 E11.65057
G1 X126.824 Y106.131 E11.66519
G1 X127.179 Y106.814 E11.7036
G1 X127.46 Y107.529 E11.74192
G1 X127.666 Y108.271 E11.78034
G1 X127.806 Y109.144 E11.82445
G1 X127.842 Y109.505 E11.84255
G1 X127.879 Y110.273 E11.88091
G1 X127.835 Y111.041 E11.91929
G1 X127.712 Y111.8 E11.95765
G1 X127.511 Y112.543 E11.99605
G1 X127.234 Y113.26 E12.0344
G1 X126.884 Y113.945 E12.07278
G1 X126.465 Y114.59 E12.11115
G1 X125.981 Y115.188 E12.14953
G1 X125.438 Y115.732 E12.18788
G1 X124.841 Y116.217 E12.22625
G1 X124.197 Y116.637 E12.26461
G1 X123.512 Y116.989 E12.30303
G1 X122.795 Y117.267 E12.3414
G1 X121.908 Y117.5 E12.38715
G1 X119.947 Y117.886 E12.48687
G1 X119.186 Y117.995 E12.52522
G1 X118.518 Y118.025 E12.55858
G1 X118.482 Y118.025 E12.56038
G1 X117.714 Y117.985 E12.59874
G1 X117.053 Y117.886 E12.63209
G1 X115.092 Y117.5 E12.7318
G1 X114.346 Y117.312 E12.77018
G1 X113.623 Y117.048 E12.80858
G1 X112.932 Y116.711 E12.84694
G1 X112.28 Y116.303 E12.88531
G1 X111.673 Y115.83 E12.9237
G1 X111.119 Y115.297 E12.96206
G1 X110.623 Y114.709 E13.00044
G1 X110.191 Y114.072 E13.03883
G1 X109.828 Y113.395 E13.07716
G1 X109.536 Y112.683 E13.11555
G1 X109.32 Y111.945 E13.15392
G1 X109.182 Y111.188 E13.19231
G1 X109.123 Y110.421 E13.23068
G1 X109.15 Y109.727 E13.26533
G1 X108.7 Y109.501 E13.29046
G1 X108.052 Y109.086 E13.32885
G1 X107.451 Y108.606 E13.36722
G1 X106.903 Y108.066 E13.4056
G1 X106.769 Y107.916 E13.41564
G1 X106.225 Y107.372 E13.45402
G1 X105.74 Y106.775 E13.4924
G1 X105.48 Y106.393 E13.51545
G1 X104.927 Y105.926 E13.55156
G1 X104.746 Y105.853 E13.5613
G1 X104.323 Y105.838 E13.58241
G1 X103.561 Y105.73 E13.62081
G1 X102.563 Y105.461 E13.67238
G1 X102.339 Y105.384 E13.68419
G1 X101.76 Y105.722 E13.71764
G1 X101.076 Y106.075 E13.75604
G1 X100.36 Y106.355 E13.7944
G1 X99.618 Y106.559 E13.83279
G1 X98.859 Y106.685 E13.87118
G1 X98.027 Y106.732 E13.91275
G1 X96.901 Y106.732 E13.96893
G1 X96.656 Y107.287 E13.99919
G1 X96.31 Y107.974 E14.03757
G1 X95.894 Y108.621 E14.07595
G1 X95.413 Y109.221 E14.11431
G1 X94.873 Y109.769 E14.1527
G1 X94.278 Y110.257 E14.19109
G1 X93.636 Y110.681 E14.22947
G1 X92.954 Y111.036 E14.26783
G1 X92.238 Y111.318 E14.30622
G1 X91.497 Y111.524 E14.34459
G1 X91.458 Y111.531 E14.34657
G1 X91.395 Y111.89 E14.36475
G1 X91.185 Y112.63 E14.40313
G1 X90.9 Y113.345 E14.44153
G1 X90.541 Y114.025 E14.47989
G1 X90.114 Y114.665 E14.51828
G1 X89.623 Y115.257 E14.55665
G1 X89.074 Y115.795 E14.595
G1 X88.471 Y116.273 E14.63339
G1 X87.822 Y116.685 E14.67174
G1 X87.133 Y117.029 E14.71016
G1 X86.413 Y117.298 E14.74851
G1 X85.471 Y117.53 E14.79691
G1 X83.307 Y117.913 E14.90655
G1 X82.543 Y118.007 E14.94495
G1 X81.983 Y118.026 E14.97291
G1 X81.215 Y117.986 E15.01127
G1 X80.693 Y117.913 E15.03757
G1 X78.529 Y117.53 E15.14721
G1 X77.78 Y117.357 E15.18556
G1 X77.053 Y117.106 E15.22393
G1 X76.355 Y116.782 E15.26232
G1 X75.695 Y116.387 E15.3007
G1 X75.08 Y115.926 E15.33904
G1 X74.515 Y115.403 E15.37745
G1 X74.008 Y114.825 E15.41581
G1 X73.564 Y114.197 E15.45418
G1 X73.187 Y113.527 E15.49254
G1 X72.882 Y112.82 E15.53095
G1 X72.652 Y112.086 E15.56933
G1 X72.5 Y111.333 E15.60765
G1 X72.426 Y110.567 E15.64605
G1 X72.447 Y109.597 E15.69445
G1 X72.479 Y109.232 E15.71273
G1 X72.586 Y108.47 E15.75112
G1 X72.772 Y107.724 E15.78948
G1 X73.033 Y107 E15.82787
G1 X73.302 Y106.446 E15.8586
G1 X73.265 Y106.403 E15.86143
G1 X72.831 Y105.768 E15.8998
G1 X72.464 Y105.092 E15.93818
G1 X72.17 Y104.381 E15.97656
G1 X71.952 Y103.644 E16.01491
G1 X71.811 Y102.888 E16.05327
G1 X71.749 Y102.121 E16.09166
G1 X71.767 Y101.352 E16.13004
G1 X71.865 Y100.589 E16.16842
G1 X72.108 Y99.625 E16.21802
G1 X72.424 Y98.652 E16.26906
G1 X72.699 Y97.934 E16.30742
G1 X73.047 Y97.248 E16.34579
G1 X73.465 Y96.602 E16.38418
G1 X73.948 Y96.003 E16.42257
G1 X74.49 Y95.458 E16.46092
G1 X75.106 Y94.956 E16.50056
G0 F3600 X75.341 Y95.279
G1 F3000 X76.272 Y94.601 E16.55802
G1 X76.9 Y94.194 E16.59536
G1 X77.567 Y93.856 E16.63266
G1 X78.266 Y93.591 E16.66996
G1 X78.683 Y93.492 E16.69134
G1 X79.886 Y92.739 E16.76215
G1 X80.541 Y92.376 E16.79951
G1 X81.23 Y92.086 E16.8368
G1 X81.946 Y91.87 E16.87411
G1 X82.681 Y91.733 E16.91141
G1 X83.028 Y91.71 E16.92876
G1 X83.177 Y91.64 E16.93698
G1 X83.87 Y91.359 E16.97428
G1 X84.59 Y91.153 E17.01165
G1 X84.806 Y91.116 E17.02258
G1 X87.048 Y89.134 E17.17188
G1 X87.634 Y88.669 E17.2092
G1 X88.267 Y88.27 E17.24653
G1 X88.938 Y87.94 E17.28383
G1 X89.706 Y87.664 E17.32455
G1 X90.644 Y87.388 E17.37333
G1 X91.744 Y86.952 E17.43236
G1 X92.634 Y86.307 E17.4872
G1 X93.262 Y85.901 E17.52451
G1 X93.93 Y85.564 E17.56183
G1 X94.63 Y85.3 E17.59916
G1 X95.354 Y85.113 E17.63646
G1 X95.967 Y85.016 E17.66743
G1 X98.49 Y84.734 E17.79408
G1 X99.206 Y84.691 E17.82987
G1 X101.025 Y84.675 E17.92062
G1 X101.773 Y84.709 E17.95798
G1 X102.512 Y84.822 E17.99528
G1 X103.355 Y85.052 E18.03887
G1 X104.778 Y85.539 E18.11391
G1 X105.129 Y85.558 E18.13145
G1 X105.867 Y85.677 E18.16874
G1 X106.589 Y85.875 E18.20609
G1 X107.285 Y86.148 E18.24339
G1 X107.948 Y86.495 E18.28072
G1 X108.5 Y86.858 E18.31368
G1 X109.858 Y87.846 E18.39747
G1 X110.119 Y87.893 E18.4107
G1 X110.837 Y88.104 E18.44804
G1 X111.528 Y88.391 E18.48537
G1 X112.194 Y88.755 E18.52323
G1 X114.646 Y90.275 E18.66716
G1 X115.456 Y90.861 E18.71704
G1 X117.408 Y92.498 E18.84414
G1 X117.955 Y93.009 E18.88148
G1 X118.444 Y93.575 E18.9188
G1 X118.712 Y93.962 E18.94228
G1 X119.22 Y94.101 E18.96856
G1 X119.481 Y94.101 E18.98158
G1 X120.228 Y94.141 E19.0189
G1 X120.966 Y94.26 E19.0562
G1 X121.688 Y94.458 E19.09355
G1 X122.384 Y94.731 E19.13085
G1 X123.047 Y95.078 E19.16818
G1 X123.599 Y95.441 E19.20114
G1 X124.557 Y96.138 E19.26025
G1 X125.138 Y96.609 E19.29756
G1 X125.665 Y97.14 E19.33489
G1 X126.132 Y97.725 E19.37223
G1 X126.534 Y98.355 E19.40951
G1 X126.867 Y99.026 E19.44689
G1 X127.126 Y99.727 E19.48417
G1 X127.309 Y100.453 E19.52152
G1 X127.43 Y101.448 E19.57153
G1 X127.434 Y101.528 E19.57553
G1 X127.432 Y102.276 E19.61284
G1 X127.349 Y103.02 E19.65019
G1 X127.188 Y103.75 E19.68749
G1 X126.95 Y104.46 E19.72485
G1 X126.637 Y105.139 E19.76215
G1 X126.254 Y105.782 E19.79949
G1 X126.186 Y105.876 E19.80528
G1 X126.581 Y106.512 E19.84263
G1 X126.905 Y107.186 E19.87994
G1 X127.155 Y107.891 E19.91726
G1 X127.329 Y108.619 E19.9546
G1 X127.408 Y109.183 E19.98301
G1 X127.444 Y109.544 E20.00111
G1 X127.479 Y110.292 E20.03847
G1 X127.433 Y111.038 E20.07576
G1 X127.308 Y111.776 E20.1131
G1 X127.105 Y112.496 E20.15042
G1 X126.827 Y113.19 E20.18772
G1 X126.475 Y113.851 E20.22508
G1 X126.056 Y114.47 E20.26238
G1 X125.572 Y115.041 E20.29972
G1 X125.031 Y115.557 E20.33702
G1 X124.437 Y116.012 E20.37435
G1 X123.799 Y116.402 E20.41165
G1 X123.122 Y116.721 E20.44899
G1 X122.415 Y116.966 E20.48632
G1 X121.831 Y117.107 E20.51629
G1 X119.87 Y117.493 E20.61601
G1 X119.129 Y117.598 E20.65334
G1 X118.518 Y117.625 E20.68386
G1 X118.482 Y117.625 E20.68565
G1 X117.735 Y117.585 E20.72297
G1 X117.13 Y117.493 E20.75351
G1 X115.169 Y117.107 E20.85322
G1 X114.444 Y116.924 E20.89052
G1 X113.742 Y116.664 E20.92787
G1 X113.073 Y116.331 E20.96515
G1 X112.442 Y115.928 E21.00251
G1 X111.858 Y115.46 E21.03984
G1 X111.328 Y114.933 E21.07713
G1 X110.857 Y114.352 E21.11445
G1 X110.45 Y113.724 E21.15178
