;FLAVOR:Marlin
;TIME:1338
;Filament used: 1.24494m
;Layer height: 0.15
;MINX:84.7
;MINY:65.2
;MINZ:0.3
;MAXX:115.3
;MAXY:134.8
;MAXZ:9.45
;Generated with Cura_SteamEngine 4.13.1
M140 S60
M105
M190 S60
M104 S200
M105
M109 S200
M82 ;absolute extrusion mode
G21 ;metric values
 G90 ;absolute positioning
 M82 ;set extruder to absolute mode
 M107 ;start with the fan off
 G28 X0 Y0 ;move X/Y to min endstops
 G28 Z0 ;move Z to min endstops
 G1 Z15.0 F120 ;move the platform down 15mm
 G92 E0 ;zero the extruded length
 G1 F200 E6 ;extrude 6 mm of feed stock
 G92 E0 ;zero the extruded length again
 G1 F120 
 ;Put printing message on LCD screen
 M117 Printing...
G92 E0
G92 E0
G1 F1500 E-6.5
;LAYER_COUNT:72
;LAYER:0
M107
G0 F3600 X86.58 Y68.039 Z0.3
;TYPE:SKIRT
G1 F1500 E0
G1 F3000 X86.985 Y67.602 E0.02973
G1 X87.102 Y67.485 E0.03798
G1 X87.688 Y66.955 E0.0774
G1 X88.324 Y66.488 E0.11677
G1 X89.004 Y66.087 E0.15615
G1 X89.722 Y65.757 E0.19557
G1 X90.469 Y65.502 E0.23495
G1 X91.238 Y65.323 E0.27434
G1 X92.022 Y65.223 E0.31378
G1 X92.617 Y65.2 E0.34348
G1 X107.383 Y65.2 E1.08016
G1 X108.172 Y65.24 E1.11957
G1 X108.952 Y65.359 E1.15894
G1 X109.717 Y65.557 E1.19836
G1 X110.457 Y65.831 E1.23773
G1 X111.166 Y66.179 E1.27713
G1 X111.837 Y66.597 E1.31657
G1 X112.461 Y67.08 E1.35594
G1 X112.898 Y67.485 E1.38567
G1 X113.015 Y67.602 E1.39392
G1 X113.545 Y68.188 E1.43334
G1 X114.012 Y68.824 E1.47271
G1 X114.413 Y69.504 E1.51209
G1 X114.743 Y70.222 E1.55152
G1 X114.998 Y70.969 E1.5909
G1 X115.177 Y71.738 E1.63029
G1 X115.277 Y72.522 E1.66972
G1 X115.3 Y73.117 E1.69942
G1 X115.3 Y126.883 E4.38182
G1 X115.26 Y127.672 E4.42124
G1 X115.141 Y128.452 E4.4606
G1 X114.943 Y129.217 E4.50002
G1 X114.669 Y129.957 E4.53939
G1 X114.321 Y130.666 E4.5788
G1 X113.903 Y131.337 E4.61824
G1 X113.42 Y131.961 E4.6576
G1 X113.015 Y132.398 E4.68733
G1 X112.898 Y132.515 E4.69558
G1 X112.312 Y133.045 E4.735
G1 X111.676 Y133.512 E4.77437
G1 X110.996 Y133.913 E4.81375
G1 X110.278 Y134.243 E4.85318
G1 X109.531 Y134.498 E4.89256
G1 X108.762 Y134.677 E4.93195
G1 X107.978 Y134.777 E4.97138
G1 X107.383 Y134.8 E5.00109
G1 X92.617 Y134.8 E5.73776
G1 X91.828 Y134.76 E5.77718
G1 X91.048 Y134.641 E5.81654
G1 X90.283 Y134.443 E5.85597
G1 X89.543 Y134.169 E5.89533
G1 X88.834 Y133.821 E5.93474
G1 X88.163 Y133.403 E5.97418
G1 X87.539 Y132.92 E6.01355
G1 X87.102 Y132.515 E6.04327
G1 X86.985 Y132.398 E6.05153
G1 X86.455 Y131.812 E6.09095
G1 X85.988 Y131.176 E6.13031
G1 X85.587 Y130.496 E6.1697
G1 X85.257 Y129.778 E6.20912
G1 X85.002 Y129.031 E6.2485
G1 X84.823 Y128.262 E6.28789
G1 X84.723 Y127.478 E6.32732
G1 X84.7 Y126.883 E6.35703
G1 X84.7 Y73.117 E9.03943
G1 X84.74 Y72.328 E9.07884
G1 X84.859 Y71.548 E9.1182
G1 X85.057 Y70.783 E9.15763
G1 X85.331 Y70.043 E9.197
G1 X85.679 Y69.334 E9.2364
G1 X86.097 Y68.663 E9.27584
G1 X86.58 Y68.039 E9.31521
G0 F3600 X86.975 Y68.194
G1 F3000 X87.384 Y67.767 E9.34471
G1 X87.956 Y67.253 E9.38307
G1 X88.578 Y66.8 E9.42146
G1 X89.243 Y66.414 E9.45982
G1 X89.945 Y66.099 E9.49821
G1 X90.676 Y65.859 E9.5366
G1 X91.427 Y65.696 E9.57494
G1 X92.192 Y65.612 E9.61333
G1 X92.617 Y65.6 E9.63454
G1 X107.383 Y65.6 E10.37122
G1 X108.151 Y65.64 E10.40959
G1 X108.911 Y65.759 E10.44797
G1 X109.654 Y65.957 E10.48633
G1 X110.373 Y66.231 E10.52472
G1 X111.059 Y66.578 E10.56307
G1 X111.706 Y66.994 E10.60145
G1 X112.306 Y67.475 E10.63981
G1 X112.733 Y67.884 E10.66931
G1 X113.247 Y68.456 E10.70768
G1 X113.7 Y69.078 E10.74607
G1 X114.086 Y69.743 E10.78443
G1 X114.401 Y70.445 E10.82281
G1 X114.641 Y71.176 E10.8612
G1 X114.804 Y71.927 E10.89954
G1 X114.888 Y72.692 E10.93793
G1 X114.9 Y73.117 E10.95915
G1 X114.9 Y126.883 E13.64154
G1 X114.86 Y127.651 E13.67991
G1 X114.741 Y128.411 E13.71829
G1 X114.543 Y129.154 E13.75665
G1 X114.269 Y129.873 E13.79504
G1 X113.922 Y130.559 E13.83339
G1 X113.506 Y131.206 E13.87177
G1 X113.025 Y131.806 E13.91013
G1 X112.616 Y132.233 E13.93963
G1 X112.044 Y132.747 E13.978
G1 X111.422 Y133.2 E14.01639
G1 X110.757 Y133.586 E14.05475
G1 X110.055 Y133.901 E14.09314
G1 X109.324 Y134.141 E14.13152
G1 X108.573 Y134.304 E14.16986
G1 X107.808 Y134.388 E14.20826
G1 X107.383 Y134.4 E14.22947
G1 X92.617 Y134.4 E14.96615
G1 X91.849 Y134.36 E15.00452
G1 X91.089 Y134.241 E15.04289
G1 X90.346 Y134.043 E15.08126
G1 X89.627 Y133.769 E15.11964
G1 X88.941 Y133.422 E15.158
G1 X88.294 Y133.006 E15.19637
G1 X87.694 Y132.525 E15.23474
G1 X87.267 Y132.116 E15.26424
G1 X86.753 Y131.544 E15.3026
G1 X86.3 Y130.922 E15.34099
G1 X85.914 Y130.257 E15.37935
G1 X85.599 Y129.555 E15.41774
G1 X85.359 Y128.824 E15.45613
G1 X85.196 Y128.073 E15.49447
G1 X85.112 Y127.308 E15.53286
G1 X85.1 Y126.883 E15.55407
G1 X85.1 Y73.117 E18.23647
G1 X85.14 Y72.349 E18.27484
G1 X85.259 Y71.589 E18.31322
G1 X85.457 Y70.846 E18.35158
G1 X85.731 Y70.127 E18.38997
G1 X86.078 Y69.441 E18.42832
G1 X86.494 Y68.794 E18.46669
G1 X86.975 Y68.194 E18.50506
G0 F3600 X86.892 Y68.928
G1 F3000 X87.55 Y68.167 E18.55525
G1 X87.667 Y68.05 E18.56351
G1 X88.224 Y67.55 E18.60085
G1 X88.83 Y67.113 E18.63812
G1 X89.48 Y66.742 E18.67546
G1 X90.166 Y66.443 E18.7128
G1 X90.88 Y66.219 E18.75013
G1 X91.613 Y66.072 E18.78743
G1 X92.617 Y66 E18.83765
G1 X107.383 Y66 E19.57432
G1 X108.13 Y66.04 E19.61165
G1 X108.868 Y66.159 E19.64894
G1 X109.59 Y66.357 E19.68629
G1 X110.286 Y66.63 E19.72359
G1 X110.949 Y66.977 E19.76092
G1 X111.572 Y67.392 E19.79827
G1 X112.333 Y68.05 E19.84846
G1 X112.45 Y68.167 E19.85672
G1 X112.95 Y68.724 E19.89406
G1 X113.387 Y69.33 E19.93133
G1 X113.758 Y69.98 E19.96867
G1 X114.057 Y70.666 E20.00601
G1 X114.281 Y71.38 E20.04334
G1 X114.428 Y72.113 E20.08064
G1 X114.5 Y73.117 E20.13086
G1 X114.5 Y126.883 E22.81325
G1 X114.46 Y127.63 E22.85057
G1 X114.341 Y128.368 E22.88787
G1 X114.143 Y129.09 E22.92522
G1 X113.87 Y129.786 E22.96252
G1 X113.523 Y130.449 E22.99985
G1 X113.108 Y131.072 E23.0372
G1 X112.45 Y131.833 E23.08739
G1 X112.333 Y131.95 E23.09564
G1 X111.776 Y132.45 E23.13299
G1 X111.17 Y132.887 E23.17026
G1 X110.52 Y133.258 E23.2076
G1 X109.834 Y133.557 E23.24494
G1 X109.12 Y133.781 E23.28227
G1 X108.387 Y133.928 E23.31957
G1 X107.383 Y134 E23.36978
G1 X92.617 Y134 E24.10646
G1 X91.87 Y133.96 E24.14378
G1 X91.132 Y133.841 E24.18108
G1 X90.41 Y133.643 E24.21843
G1 X89.714 Y133.37 E24.25573
G1 X89.051 Y133.023 E24.29306
G1 X88.428 Y132.608 E24.33041
G1 X87.667 Y131.95 E24.3806
G1 X87.55 Y131.833 E24.38886
G1 X87.05 Y131.276 E24.4262
G1 X86.613 Y130.67 E24.46347
G1 X86.242 Y130.02 E24.50081
G1 X85.943 Y129.334 E24.53815
G1 X85.719 Y128.62 E24.57548
G1 X85.572 Y127.887 E24.61278
G1 X85.5 Y126.883 E24.663
G1 X85.5 Y73.117 E27.34539
G1 X85.54 Y72.37 E27.38271
G1 X85.659 Y71.632 E27.42001
G1 X85.857 Y70.91 E27.45736
G1 X86.13 Y70.214 E27.49466
G1 X86.477 Y69.551 E27.53199
G1 X86.892 Y68.928 E27.56934
G0 F3600 X87.289 Y69.067
G1 F3000 X87.833 Y68.45 E27.61038
G1 X87.95 Y68.333 E27.61863
G1 X88.491 Y67.849 E27.65485
G1 X89.082 Y67.426 E27.69111
G1 X89.716 Y67.072 E27.72733
G1 X90.385 Y66.789 E27.76357
G1 X91.081 Y66.581 E27.79981
G1 X91.796 Y66.451 E27.83607
G1 X92.617 Y66.4 E27.87711
G1 X107.383 Y66.4 E28.61379
G1 X108.108 Y66.44 E28.65001
G1 X108.825 Y66.559 E28.68627
G1 X109.524 Y66.757 E28.72252
G1 X110.197 Y67.03 E28.75875
G1 X110.836 Y67.375 E28.79498
G1 X111.433 Y67.789 E28.83123
G1 X112.05 Y68.333 E28.87227
G1 X112.167 Y68.45 E28.88052
G1 X112.651 Y68.991 E28.91674
G1 X113.074 Y69.582 E28.953
G1 X113.428 Y70.216 E28.98922
G1 X113.711 Y70.885 E29.02546
G1 X113.919 Y71.581 E29.0617
G1 X114.049 Y72.296 E29.09796
G1 X114.1 Y73.117 E29.139
G1 X114.1 Y126.883 E31.82139
G1 X114.06 Y127.608 E31.85762
G1 X113.941 Y128.325 E31.89388
G1 X113.743 Y129.024 E31.93013
G1 X113.47 Y129.697 E31.96636
G1 X113.125 Y130.336 E32.00259
G1 X112.711 Y130.933 E32.03883
G1 X112.167 Y131.55 E32.07987
G1 X112.05 Y131.667 E32.08813
G1 X111.509 Y132.151 E32.12434
G1 X110.918 Y132.574 E32.1606
G1 X110.284 Y132.928 E32.19683
G1 X109.615 Y133.211 E32.23307
G1 X108.919 Y133.419 E32.26931
G1 X108.204 Y133.549 E32.30557
G1 X107.383 Y133.6 E32.34661
G1 X92.617 Y133.6 E33.08328
G1 X91.892 Y133.56 E33.11951
G1 X91.175 Y133.441 E33.15577
G1 X90.476 Y133.243 E33.19202
G1 X89.803 Y132.97 E33.22825
G1 X89.164 Y132.625 E33.26448
G1 X88.567 Y132.211 E33.30072
G1 X87.95 Y131.667 E33.34176
G1 X87.833 Y131.55 E33.35002
G1 X87.349 Y131.009 E33.38623
G1 X86.926 Y130.418 E33.42249
G1 X86.572 Y129.784 E33.45872
G1 X86.289 Y129.115 E33.49496
G1 X86.081 Y128.419 E33.5312
G1 X85.951 Y127.704 E33.56746
G1 X85.9 Y126.883 E33.6085
G1 X85.9 Y73.117 E36.29089
G1 X85.94 Y72.392 E36.32712
G1 X86.059 Y71.675 E36.36338
G1 X86.257 Y70.976 E36.39962
G1 X86.53 Y70.303 E36.43586
G1 X86.875 Y69.664 E36.47209
G1 X87.289 Y69.067 E36.50833
G0 F3600 X87.685 Y69.211
G1 F3000 X88.116 Y68.733 E36.54044
G1 X88.233 Y68.616 E36.5487
G1 X88.758 Y68.147 E36.58382
G1 X89.333 Y67.741 E36.61894
G1 X89.951 Y67.403 E36.65408
G1 X90.602 Y67.136 E36.68918
G1 X91.28 Y66.946 E36.72431
G1 X91.975 Y66.833 E36.75944
G1 X92.617 Y66.8 E36.79151
G1 X107.383 Y66.8 E37.52819
G1 X108.086 Y66.84 E37.56332
G1 X108.78 Y66.959 E37.59845
G1 X109.455 Y67.157 E37.63354
G1 X110.104 Y67.429 E37.66865
G1 X110.718 Y67.774 E37.70379
G1 X111.289 Y68.185 E37.73889
G1 X111.767 Y68.616 E37.771
G1 X111.884 Y68.733 E37.77925
G1 X112.353 Y69.258 E37.81437
G1 X112.759 Y69.833 E37.84949
G1 X113.097 Y70.451 E37.88463
G1 X113.364 Y71.102 E37.91974
G1 X113.554 Y71.78 E37.95487
G1 X113.667 Y72.475 E37.99
G1 X113.7 Y73.117 E38.02207
G1 X113.7 Y126.883 E40.70446
G1 X113.66 Y127.586 E40.73959
G1 X113.541 Y128.28 E40.77472
G1 X113.343 Y128.955 E40.80982
G1 X113.071 Y129.604 E40.84493
G1 X112.726 Y130.218 E40.88006
G1 X112.315 Y130.789 E40.91516
G1 X111.884 Y131.267 E40.94727
G1 X111.767 Y131.384 E40.95553
G1 X111.242 Y131.853 E40.99065
G1 X110.667 Y132.259 E41.02577
G1 X110.049 Y132.597 E41.06091
G1 X109.398 Y132.864 E41.09601
G1 X108.72 Y133.054 E41.13114
G1 X108.025 Y133.167 E41.16627
G1 X107.383 Y133.2 E41.19834
G1 X92.617 Y133.2 E41.93502
G1 X91.914 Y133.16 E41.97015
G1 X91.22 Y133.041 E42.00528
G1 X90.545 Y132.843 E42.04037
G1 X89.896 Y132.571 E42.07548
G1 X89.282 Y132.226 E42.11062
G1 X88.711 Y131.815 E42.14572
G1 X88.233 Y131.384 E42.17783
G1 X88.116 Y131.267 E42.18608
G1 X87.647 Y130.742 E42.2212
G1 X87.241 Y130.167 E42.25632
G1 X86.903 Y129.549 E42.29146
G1 X86.636 Y128.898 E42.32657
G1 X86.446 Y128.22 E42.3617
G1 X86.333 Y127.525 E42.39683
G1 X86.3 Y126.883 E42.4289
G1 X86.3 Y73.117 E45.11129
G1 X86.34 Y72.414 E45.14642
G1 X86.459 Y71.72 E45.18155
G1 X86.657 Y71.045 E45.21665
G1 X86.929 Y70.396 E45.25176
G1 X87.274 Y69.782 E45.28689
G1 X87.685 Y69.211 E45.32199
G0 F3600 X88.082 Y69.359
G1 F3000 X88.516 Y68.899 E45.35354
G1 X89.025 Y68.446 E45.38754
G1 X89.583 Y68.057 E45.42147
G1 X90.183 Y67.735 E45.45545
G1 X90.817 Y67.486 E45.48943
G1 X91.476 Y67.313 E45.52342
G1 X92.15 Y67.219 E45.55737
G1 X92.617 Y67.2 E45.58069
G1 X107.383 Y67.2 E46.31737
G1 X108.063 Y67.24 E46.35135
G1 X108.733 Y67.359 E46.3853
G1 X109.385 Y67.556 E46.41928
G1 X110.009 Y67.828 E46.45324
G1 X110.597 Y68.172 E46.48723
G1 X111.141 Y68.582 E46.52122
G1 X111.601 Y69.016 E46.55277
G1 X112.054 Y69.525 E46.58676
G1 X112.443 Y70.083 E46.6207
G1 X112.765 Y70.683 E46.65467
G1 X113.014 Y71.317 E46.68865
G1 X113.187 Y71.976 E46.72264
G1 X113.281 Y72.65 E46.7566
G1 X113.3 Y73.117 E46.77991
G1 X113.3 Y126.883 E49.46231
G1 X113.26 Y127.563 E49.49629
G1 X113.141 Y128.233 E49.53024
G1 X112.944 Y128.885 E49.56422
G1 X112.672 Y129.509 E49.59818
G1 X112.328 Y130.097 E49.63217
G1 X111.918 Y130.641 E49.66616
G1 X111.484 Y131.101 E49.69771
G1 X110.975 Y131.554 E49.7317
G1 X110.417 Y131.943 E49.76564
G1 X109.817 Y132.265 E49.79961
G1 X109.183 Y132.514 E49.83359
G1 X108.524 Y132.687 E49.86759
G1 X107.85 Y132.781 E49.90154
G1 X107.383 Y132.8 E49.92485
G1 X92.617 Y132.8 E50.66153
G1 X91.937 Y132.76 E50.69552
G1 X91.267 Y132.641 E50.72947
G1 X90.615 Y132.444 E50.76345
G1 X89.991 Y132.172 E50.79741
G1 X89.403 Y131.828 E50.8314
G1 X88.859 Y131.418 E50.86538
G1 X88.399 Y130.984 E50.89693
G1 X87.946 Y130.475 E50.93093
G1 X87.557 Y129.917 E50.96486
G1 X87.235 Y129.317 E50.99884
G1 X86.986 Y128.683 E51.03282
G1 X86.813 Y128.024 E51.06681
G1 X86.719 Y127.35 E51.10076
G1 X86.7 Y126.883 E51.12408
G1 X86.7 Y73.117 E53.80648
G1 X86.74 Y72.437 E53.84046
G1 X86.859 Y71.767 E53.87441
G1 X87.056 Y71.115 E53.90839
G1 X87.328 Y70.491 E53.94235
G1 X87.672 Y69.903 E53.97634
G1 X88.082 Y69.359 E54.01032
G0 F3600 X88.682 Y69.299
G1 F3000 X88.799 Y69.182 E54.01858
G1 X89.291 Y68.746 E54.05137
G1 X89.832 Y68.374 E54.08413
G1 X90.414 Y68.07 E54.11689
G1 X91.029 Y67.839 E54.14966
G1 X91.668 Y67.684 E54.18247
G1 X92.617 Y67.6 E54.23
G1 X107.383 Y67.6 E54.96668
G1 X108.039 Y67.64 E54.99947
G1 X108.685 Y67.759 E55.03224
G1 X109.312 Y67.956 E55.06503
G1 X109.91 Y68.228 E55.0978
G1 X110.471 Y68.57 E55.13058
G1 X111.201 Y69.182 E55.17811
G1 X111.318 Y69.299 E55.18636
G1 X111.754 Y69.791 E55.21916
G1 X112.126 Y70.332 E55.25192
G1 X112.43 Y70.914 E55.28467
G1 X112.661 Y71.529 E55.31745
G1 X112.816 Y72.168 E55.35025
G1 X112.9 Y73.117 E55.39778
G1 X112.9 Y126.883 E58.08018
G1 X112.86 Y127.539 E58.11297
G1 X112.741 Y128.185 E58.14574
G1 X112.544 Y128.812 E58.17853
G1 X112.272 Y129.41 E58.21131
G1 X111.93 Y129.971 E58.24408
G1 X111.318 Y130.701 E58.29161
G1 X111.201 Y130.818 E58.29987
G1 X110.709 Y131.254 E58.33266
G1 X110.168 Y131.626 E58.36542
G1 X109.586 Y131.93 E58.39818
G1 X108.971 Y132.161 E58.43095
G1 X108.332 Y132.316 E58.46376
G1 X107.383 Y132.4 E58.51129
G1 X92.617 Y132.4 E59.24797
G1 X91.961 Y132.36 E59.28075
G1 X91.315 Y132.241 E59.31353
G1 X90.688 Y132.044 E59.34632
G1 X90.09 Y131.772 E59.37909
G1 X89.529 Y131.43 E59.41187
G1 X88.799 Y130.818 E59.4594
G1 X88.682 Y130.701 E59.46765
G1 X88.246 Y130.209 E59.50045
G1 X87.874 Y129.668 E59.5332
G1 X87.57 Y129.086 E59.56596
G1 X87.339 Y128.471 E59.59874
G1 X87.184 Y127.832 E59.63154
G1 X87.1 Y126.883 E59.67907
G1 X87.1 Y73.117 E62.36147
G1 X87.14 Y72.461 E62.39426
G1 X87.259 Y71.815 E62.42703
G1 X87.456 Y71.188 E62.45982
G1 X87.728 Y70.59 E62.49259
G1 X88.07 Y70.029 E62.52537
G1 X88.682 Y69.299 E62.5729
G0 F3600 X88.964 Y69.581
G1 F3000 X89.081 Y69.464 E62.58115
G1 X89.556 Y69.047 E62.61269
G1 X90.079 Y68.692 E62.64422
G1 X90.643 Y68.406 E62.67577
G1 X91.238 Y68.194 E62.70728
G1 X91.856 Y68.058 E62.73885
G1 X92.617 Y68 E62.77693
G1 X107.383 Y68 E63.51361
G1 X108.014 Y68.04 E63.54515
G1 X108.635 Y68.159 E63.5767
G1 X109.235 Y68.356 E63.60821
G1 X109.807 Y68.627 E63.63978
G1 X110.339 Y68.967 E63.67128
G1 X110.919 Y69.464 E63.70939
G1 X111.036 Y69.581 E63.71764
G1 X111.453 Y70.056 E63.74918
G1 X111.808 Y70.579 E63.78071
G1 X112.094 Y71.143 E63.81226
G1 X112.306 Y71.738 E63.84378
G1 X112.442 Y72.356 E63.87535
G1 X112.5 Y73.117 E63.91342
G1 X112.5 Y126.883 E66.59582
G1 X112.46 Y127.514 E66.62736
G1 X112.341 Y128.135 E66.65891
G1 X112.144 Y128.735 E66.69041
G1 X111.873 Y129.307 E66.72199
G1 X111.533 Y129.839 E66.75349
G1 X111.036 Y130.419 E66.7916
G1 X110.919 Y130.536 E66.79985
G1 X110.444 Y130.953 E66.83139
G1 X109.921 Y131.308 E66.86292
G1 X109.357 Y131.594 E66.89447
G1 X108.762 Y131.806 E66.92598
G1 X108.144 Y131.942 E66.95755
G1 X107.383 Y132 E66.99563
G1 X92.617 Y132 E67.73231
G1 X91.986 Y131.96 E67.76385
G1 X91.365 Y131.841 E67.7954
G1 X90.765 Y131.644 E67.82691
G1 X90.193 Y131.373 E67.85848
G1 X89.661 Y131.033 E67.88998
G1 X89.081 Y130.536 E67.92809
G1 X88.964 Y130.419 E67.93634
G1 X88.547 Y129.944 E67.96788
G1 X88.192 Y129.421 E67.99941
G1 X87.906 Y128.857 E68.03096
G1 X87.694 Y128.262 E68.06248
G1 X87.558 Y127.644 E68.09405
G1 X87.5 Y126.883 E68.13212
G1 X87.5 Y73.117 E70.81452
G1 X87.54 Y72.486 E70.84606
G1 X87.659 Y71.865 E70.87761
G1 X87.856 Y71.265 E70.90912
G1 X88.127 Y70.693 E70.94069
G1 X88.467 Y70.161 E70.97219
G1 X88.964 Y69.581 E71.0103
G0 F3600 X88.865 Y70.298
G1 F3000 X89.247 Y69.864 E71.03914
G1 X89.364 Y69.747 E71.0474
G1 X89.82 Y69.348 E71.07763
G1 X90.325 Y69.012 E71.10789
G1 X90.869 Y68.745 E71.13812
G1 X91.444 Y68.552 E71.16838
G1 X92.039 Y68.436 E71.19863
G1 X92.617 Y68.4 E71.22752
G1 X107.383 Y68.4 E71.9642
