;FLAVOR:Marlin
;TIME:2391
;Filament used: 1.46535m
;Layer height: 0.15
;MINX:79.331
;MINY:70.172
;MINZ:0.3
;MAXX:114.795
;MAXY:129.693
;MAXZ:28.35
;Generated with Cura_SteamEngine 4.13.1
M140 S60
M105
M190 S60
M104 S200
M105
M109 S200
M82 ;absolute extrusion mode
G21 ;metric values
 G90 ;absolute positioning
 M82 ;set extruder to absolute mode
 M107 ;start with the fan off
 G28 X0 Y0 ;move X/Y to min endstops
 G28 Z0 ;move Z to min endstops
 G1 Z15.0 F120 ;move the platform down 15mm
 G92 E0 ;zero the extruded length
 G1 F200 E6 ;extrude 6 mm of feed stock
 G92 E0 ;zero the extruded length again
 G1 F120 
 ;Put printing message on LCD screen
 M117 Printing...
G92 E0
G92 E0
G1 F1500 E-6.5
;LAYER_COUNT:192
;LAYER:0
M107
G0 F3600 X94.31 Y74.579 Z0.3
;TYPE:SKIRT
G1 F1500 E0
G1 F3000 X94.861 Y74.013 E0.03941
G1 X95.583 Y73.418 E0.08608
G1 X96.488 Y72.759 E0.14194
G1 X97.149 Y72.327 E0.18133
G1 X97.85 Y71.964 E0.22072
G1 X98.584 Y71.674 E0.26009
G1 X99.344 Y71.459 E0.2995
G1 X100.122 Y71.323 E0.3389
G1 X101.079 Y71.264 E0.38673
G1 X102.197 Y71.264 E0.44251
G1 X102.986 Y71.304 E0.48193
G1 X103.766 Y71.423 E0.52129
G1 X104.531 Y71.621 E0.56071
G1 X105.271 Y71.895 E0.60008
G1 X105.98 Y72.243 E0.63949
G1 X106.785 Y72.756 E0.68711
G1 X107.691 Y73.415 E0.743
G1 X108.305 Y73.911 E0.78238
G1 X108.866 Y74.467 E0.82179
G1 X109.368 Y75.077 E0.8612
G1 X109.806 Y75.734 E0.90059
G1 X110.175 Y76.432 E0.93998
G1 X110.471 Y77.164 E0.97938
G1 X110.651 Y77.757 E1.01029
G1 X111.421 Y80.713 E1.16269
G1 X111.581 Y81.486 E1.20207
G1 X111.662 Y82.272 E1.24149
G1 X111.66 Y82.619 E1.25881
G1 X111.767 Y83.262 E1.29133
G1 X111.816 Y84.05 E1.33072
G1 X111.786 Y84.84 E1.37016
G1 X111.677 Y85.622 E1.40955
G1 X111.38 Y86.723 E1.46644
G1 X111.206 Y87.221 E1.49276
G1 X111.033 Y88.542 E1.55923
G1 X110.889 Y89.33 E1.59919
G1 X110.627 Y90.435 E1.65585
G1 X110.406 Y91.193 E1.69524
G1 X110.109 Y91.925 E1.73465
G1 X109.74 Y92.623 E1.77404
G1 X109.303 Y93.28 E1.81341
G1 X108.985 Y93.667 E1.8384
G1 X109.053 Y93.725 E1.84286
G1 X109.408 Y94.085 E1.86808
G1 X109.637 Y94.333 E1.88492
G1 X110.009 Y94.767 E1.91344
G1 X110.559 Y95.549 E1.96114
G1 X110.713 Y95.799 E1.97579
G1 X111.194 Y96.709 E2.02714
G1 X111.458 Y97.377 E2.06297
G1 X111.549 Y97.642 E2.07695
G1 X111.765 Y98.389 E2.11575
G1 X111.929 Y99.332 E2.1635
G1 X111.96 Y99.61 E2.17746
G1 X112.008 Y100.496 E2.22172
G1 X111.957 Y101.388 E2.2663
G1 X111.925 Y101.666 E2.28026
G1 X111.807 Y102.389 E2.31681
G1 X111.531 Y103.382 E2.36823
G1 X111.432 Y103.664 E2.38314
G1 X111.133 Y104.395 E2.42254
G1 X110.732 Y105.14 E2.46475
G1 X110.579 Y105.391 E2.47941
G1 X110.135 Y106.043 E2.51877
G1 X109.693 Y106.576 E2.55331
G1 X109.465 Y106.827 E2.57023
G1 X109.081 Y107.215 E2.59747
G1 X109.186 Y107.46 E2.61077
G1 X109.423 Y108.213 E2.65015
G1 X109.582 Y108.987 E2.68957
G1 X109.663 Y109.772 E2.72894
G1 X109.684 Y109.972 E2.73898
G1 X109.92 Y110.535 E2.76943
G1 X110.827 Y112.956 E2.89841
G1 X111.066 Y113.708 E2.93778
G1 X111.228 Y114.481 E2.97718
G1 X111.311 Y115.266 E3.01657
G1 X111.318 Y115.964 E3.05139
G1 X111.236 Y118.317 E3.16885
G1 X111.132 Y119.342 E3.22025
G1 X110.91 Y120.659 E3.28689
G1 X110.74 Y121.43 E3.32627
G1 X110.52 Y122.106 E3.36174
G1 X110.11 Y123.197 E3.41989
G1 X109.796 Y123.921 E3.45926
G1 X109.409 Y124.61 E3.49869
G1 X108.955 Y125.256 E3.53808
G1 X108.438 Y125.853 E3.57748
G1 X107.863 Y126.394 E3.61687
G1 X107.395 Y126.762 E3.64657
G1 X106.3 Y127.558 E3.71411
G1 X105.639 Y127.99 E3.7535
G1 X104.937 Y128.352 E3.79291
G1 X104.203 Y128.641 E3.83226
G1 X103.442 Y128.855 E3.8717
G1 X102.664 Y128.991 E3.91111
G1 X101.714 Y129.049 E3.95859
G1 X100.362 Y129.049 E4.02604
G1 X99.573 Y129.009 E4.06546
G1 X98.793 Y128.89 E4.10482
G1 X98.028 Y128.692 E4.14424
G1 X97.288 Y128.418 E4.18361
G1 X96.579 Y128.07 E4.22302
G1 X95.772 Y127.555 E4.27078
G1 X94.677 Y126.758 E4.33835
G1 X94.063 Y126.262 E4.37772
G1 X93.502 Y125.706 E4.41713
G1 X93 Y125.096 E4.45654
G1 X92.563 Y124.439 E4.49591
G1 X92.194 Y123.74 E4.53534
G1 X91.85 Y122.865 E4.58225
G1 X91.432 Y121.58 E4.64967
G1 X91.226 Y120.817 E4.68909
G1 X91.098 Y120.038 E4.72848
G1 X91.049 Y119.25 E4.76787
G1 X91.081 Y118.461 E4.80727
G1 X91.147 Y117.994 E4.8308
G1 X90.712 Y117.833 E4.85394
G1 X90.003 Y117.485 E4.89334
G1 X89.332 Y117.067 E4.93278
G1 X88.571 Y116.464 E4.98122
G1 X87.051 Y115.097 E5.08321
G1 X86.027 Y114.348 E5.14651
G1 X85.414 Y113.85 E5.18591
G1 X84.855 Y113.293 E5.22528
G1 X84.355 Y112.681 E5.26471
G1 X83.919 Y112.023 E5.30409
G1 X83.552 Y111.324 E5.34347
G1 X83.386 Y110.901 E5.36614
G1 X82.911 Y110.43 E5.39952
G1 X82.409 Y109.821 E5.43889
G1 X81.971 Y109.163 E5.47833
G1 X81.602 Y108.465 E5.51772
G1 X81.257 Y107.591 E5.5646
G1 X80.853 Y106.352 E5.62961
G1 X80.736 Y105.919 E5.65199
G1 X80.579 Y105.645 E5.66775
G1 X80.258 Y104.923 E5.70717
G1 X80.12 Y104.534 E5.72776
G1 X79.714 Y103.287 E5.79319
G1 X79.508 Y102.524 E5.83262
G1 X79.38 Y101.745 E5.872
G1 X79.331 Y100.957 E5.91139
G1 X79.363 Y100.168 E5.95079
G1 X79.474 Y99.386 E5.99019
G1 X79.715 Y98.455 E6.03817
G1 X80.121 Y97.209 E6.10355
G1 X80.403 Y96.472 E6.14292
G1 X80.759 Y95.767 E6.18232
G1 X81.184 Y95.101 E6.22174
G1 X81.674 Y94.482 E6.26112
G1 X82.224 Y93.916 E6.3005
G1 X82.935 Y93.329 E6.3465
G1 X82.942 Y93.145 E6.35568
G1 X83.052 Y92.364 E6.39503
G1 X83.294 Y91.431 E6.44312
G1 X83.698 Y90.191 E6.50818
G1 X83.98 Y89.453 E6.5476
G1 X84.335 Y88.748 E6.58698
G1 X84.76 Y88.082 E6.6264
G1 X85.25 Y87.463 E6.66578
G1 X85.69 Y87.032 E6.69651
G1 X86.016 Y86.52 E6.72679
G1 X86.506 Y85.9 E6.76622
G1 X87.055 Y85.333 E6.80559
G1 X87.788 Y84.729 E6.85298
G1 X88.824 Y83.976 E6.91688
G1 X89.486 Y83.544 E6.95631
G1 X90.187 Y83.182 E6.99567
G1 X90.37 Y83.11 E7.00549
G1 X90.804 Y82.785 E7.03254
G1 X91.482 Y82.379 E7.07196
G1 X91.695 Y82.28 E7.08368
G1 X92.096 Y81.914 E7.11077
G1 X92.082 Y81.703 E7.12132
G1 X92.029 Y80.915 E7.16072
G1 X92.056 Y80.126 E7.20011
G1 X92.162 Y79.344 E7.23948
G1 X92.412 Y78.369 E7.28969
G1 X92.758 Y77.307 E7.34542
G1 X93.04 Y76.569 E7.38483
G1 X93.395 Y75.864 E7.42421
G1 X93.82 Y75.198 E7.46363
G1 X94.31 Y74.579 E7.50302
G0 F3600 X94.664 Y74.783
G1 F3000 X95.207 Y74.238 E7.5414
G1 X95.818 Y73.741 E7.58069
G1 X96.723 Y73.082 E7.63654
G1 X97.367 Y72.662 E7.6749
G1 X98.052 Y72.311 E7.7133
G1 X98.769 Y72.034 E7.75165
G1 X99.512 Y71.832 E7.79006
G1 X100.271 Y71.708 E7.82843
G1 X101.079 Y71.664 E7.8688
G1 X102.197 Y71.664 E7.92458
G1 X102.965 Y71.704 E7.96295
G1 X103.725 Y71.823 E8.00133
G1 X104.468 Y72.021 E8.03969
G1 X105.187 Y72.295 E8.07808
G1 X105.873 Y72.642 E8.11643
G1 X106.55 Y73.08 E8.15666
G1 X107.456 Y73.739 E8.21255
G1 X108.054 Y74.223 E8.25093
G1 X108.598 Y74.766 E8.28928
G1 X109.083 Y75.363 E8.32766
G1 X109.503 Y76.008 E8.36606
G1 X109.854 Y76.692 E8.40441
G1 X110.132 Y77.409 E8.44278
G1 X110.264 Y77.858 E8.46613
G1 X111.034 Y80.814 E8.61852
G1 X111.189 Y81.567 E8.65688
G1 X111.265 Y82.332 E8.69523
G1 X111.262 Y82.655 E8.71135
G1 X111.374 Y83.347 E8.74632
G1 X111.417 Y84.115 E8.7847
G1 X111.38 Y84.884 E8.82311
G1 X111.264 Y85.644 E8.86146
G1 X111.002 Y86.591 E8.91048
G1 X110.814 Y87.128 E8.93887
G1 X110.636 Y88.49 E9.0074
G1 X110.499 Y89.237 E9.04529
G1 X110.237 Y90.342 E9.10194
G1 X110.021 Y91.08 E9.14031
G1 X109.73 Y91.792 E9.17868
G1 X109.366 Y92.47 E9.21707
G1 X108.934 Y93.106 E9.25543
G1 X108.438 Y93.694 E9.29381
G1 X109.114 Y94.357 E9.34105
G1 X109.343 Y94.605 E9.35789
G1 X109.696 Y95.017 E9.38496
G1 X110.219 Y95.759 E9.43025
G1 X110.373 Y96.009 E9.4449
G1 X110.829 Y96.873 E9.49364
G1 X111.08 Y97.507 E9.52765
G1 X111.171 Y97.772 E9.54163
G1 X111.376 Y98.482 E9.5785
G1 X111.531 Y99.376 E9.62377
G1 X111.562 Y99.654 E9.63772
G1 X111.608 Y100.496 E9.6798
G1 X111.559 Y101.342 E9.72207
G1 X111.527 Y101.62 E9.73603
G1 X111.415 Y102.307 E9.77076
G1 X111.153 Y103.249 E9.81954
G1 X111.054 Y103.531 E9.83445
G1 X110.762 Y104.243 E9.87285
G1 X110.391 Y104.932 E9.91189
G1 X110.238 Y105.183 E9.92655
G1 X109.804 Y105.818 E9.96492
G1 X109.397 Y106.307 E9.99667
G1 X109.169 Y106.558 E10.01358
G1 X108.712 Y107.018 E10.04593
G1 X108.609 Y107.11 E10.05282
G1 X108.89 Y107.825 E10.09115
G1 X109.096 Y108.567 E10.12957
G1 X109.224 Y109.325 E10.16792
G1 X109.27 Y110.052 E10.20426
G1 X109.546 Y110.675 E10.23826
G1 X110.453 Y113.096 E10.36724
G1 X110.685 Y113.829 E10.4056
G1 X110.839 Y114.583 E10.44399
G1 X110.915 Y115.348 E10.48235
G1 X110.919 Y115.95 E10.51238
G1 X110.837 Y118.303 E10.62984
G1 X110.738 Y119.275 E10.67859
G1 X110.516 Y120.592 E10.74522
G1 X110.349 Y121.343 E10.7836
G1 X110.146 Y121.965 E10.81625
G1 X109.736 Y123.056 E10.87439
G1 X109.428 Y123.761 E10.91278
G1 X109.049 Y124.43 E10.95114
G1 X108.603 Y125.057 E10.98952
G1 X108.094 Y125.633 E11.02787
G1 X107.527 Y126.154 E11.06629
G1 X107.16 Y126.439 E11.08947
G1 X106.065 Y127.235 E11.15701
G1 X105.42 Y127.654 E11.19538
G1 X104.736 Y128.004 E11.23372
G1 X104.018 Y128.281 E11.27211
G1 X103.276 Y128.482 E11.31046
G1 X102.516 Y128.605 E11.34887
G1 X101.714 Y128.649 E11.38895
G1 X100.362 Y128.649 E11.4564
G1 X99.594 Y128.609 E11.49476
G1 X98.834 Y128.49 E11.53314
G1 X98.091 Y128.292 E11.5715
G1 X97.372 Y128.018 E11.60989
G1 X96.686 Y127.671 E11.64825
G1 X96.007 Y127.232 E11.68859
G1 X94.912 Y126.435 E11.75615
G1 X94.315 Y125.951 E11.7945
G1 X93.771 Y125.407 E11.83288
G1 X93.286 Y124.81 E11.87125
G1 X92.866 Y124.165 E11.90965
G1 X92.515 Y123.481 E11.94801
G1 X92.23 Y122.741 E11.98757
G1 X91.812 Y121.456 E12.05499
G1 X91.612 Y120.713 E12.09337
G1 X91.491 Y119.954 E12.13172
G1 X91.449 Y119.186 E12.17009
G1 X91.487 Y118.418 E12.20845
G1 X91.594 Y117.728 E12.24329
G1 X91.515 Y117.707 E12.24737
G1 X90.796 Y117.433 E12.28576
G1 X90.11 Y117.086 E12.32411
G1 X89.463 Y116.67 E12.36249
G1 X88.838 Y116.167 E12.40251
G1 X87.298 Y114.782 E12.50584
G1 X86.263 Y114.025 E12.56982
G1 X85.667 Y113.539 E12.60818
G1 X85.124 Y112.994 E12.64657
G1 X84.641 Y112.396 E12.68492
G1 X84.223 Y111.75 E12.7233
G1 X83.874 Y111.065 E12.76166
G1 X83.723 Y110.673 E12.78262
G1 X83.179 Y110.131 E12.82093
G1 X82.695 Y109.534 E12.85927
G1 X82.274 Y108.89 E12.89766
G1 X81.923 Y108.206 E12.93601
G1 X81.638 Y107.467 E12.97553
G1 X81.234 Y106.228 E13.04055
G1 X81.108 Y105.763 E13.06458
G1 X80.909 Y105.41 E13.0848
G1 X80.501 Y104.41 E13.13868
G1 X80.095 Y103.163 E13.20411
G1 X79.895 Y102.42 E13.2425
G1 X79.773 Y101.661 E13.28085
G1 X79.731 Y100.893 E13.31922
G1 X79.769 Y100.124 E13.35763
G1 X79.886 Y99.364 E13.396
G1 X80.095 Y98.579 E13.43653
G1 X80.501 Y97.333 E13.50191
G1 X80.777 Y96.615 E13.54028
G1 X81.126 Y95.93 E13.57864
G1 X81.544 Y95.285 E13.61698
G1 X82.027 Y94.686 E13.65537
G1 X82.57 Y94.141 E13.69375
G1 X83.179 Y93.646 E13.73291
G1 X83.326 Y93.539 E13.74198
G1 X83.348 Y93.102 E13.76381
G1 X83.465 Y92.342 E13.80217
G1 X83.674 Y91.555 E13.8428
G1 X84.078 Y90.315 E13.90786
G1 X84.354 Y89.597 E13.94624
G1 X84.703 Y88.911 E13.98464
G1 X85.121 Y88.266 E14.02298
G1 X85.604 Y87.667 E14.06137
G1 X86.002 Y87.281 E14.08903
G1 X86.377 Y86.702 E14.12345
G1 X86.859 Y86.103 E14.16181
G1 X87.401 Y85.558 E14.20015
G1 X88.023 Y85.052 E14.24016
G1 X89.059 Y84.299 E14.30405
G1 X89.704 Y83.88 E14.34242
G1 X90.389 Y83.53 E14.3808
G1 X90.565 Y83.462 E14.39022
G1 X91.06 Y83.095 E14.42096
G1 X91.723 Y82.704 E14.45936
G1 X91.926 Y82.61 E14.47052
G1 X92.366 Y82.21 E14.50019
G1 X92.551 Y82.074 E14.51164
G1 X92.475 Y81.617 E14.53476
G1 X92.428 Y80.849 E14.57314
G1 X92.462 Y80.08 E14.61155
G1 X92.575 Y79.32 E14.64988
G1 X92.792 Y78.493 E14.69253
G1 X93.138 Y77.431 E14.74826
G1 X93.414 Y76.713 E14.78664
G1 X93.763 Y76.027 E14.82504
G1 X94.181 Y75.382 E14.86338
G1 X94.664 Y74.783 E14.90177
G0 F3600 X95.017 Y74.989
G1 F3000 X95.552 Y74.466 E14.9391
G1 X96.053 Y74.064 E14.97114
G1 X96.958 Y73.405 E15.027
G1 X97.586 Y72.998 E15.06433
G1 X98.253 Y72.66 E15.10164
G1 X98.953 Y72.395 E15.13898
G1 X99.677 Y72.206 E15.17631
G1 X100.416 Y72.095 E15.21359
G1 X101.079 Y72.064 E15.24671
G1 X102.197 Y72.064 E15.30248
G1 X102.944 Y72.104 E15.3398
G1 X103.682 Y72.223 E15.3771
G1 X104.404 Y72.421 E15.41445
G1 X105.1 Y72.694 E15.45175
G1 X105.763 Y73.041 E15.48908
G1 X106.315 Y73.403 E15.52202
G1 X107.221 Y74.062 E15.57791
G1 X107.801 Y74.534 E15.61522
G1 X108.328 Y75.065 E15.65254
G1 X108.795 Y75.649 E15.68985
G1 X109.198 Y76.28 E15.7272
G1 X109.53 Y76.95 E15.7645
G1 X109.877 Y77.958 E15.81769
G1 X110.647 Y80.914 E15.97009
G1 X110.797 Y81.647 E16.00741
G1 X110.867 Y82.392 E16.04475
G1 X110.864 Y82.693 E16.05976
G1 X110.98 Y83.432 E16.09708
G1 X111.017 Y84.179 E16.1344
G1 X110.974 Y84.926 E16.17173
G1 X110.851 Y85.663 E16.209
G1 X110.624 Y86.459 E16.2503
G1 X110.424 Y87.03 E16.28048
G1 X110.24 Y88.438 E16.35133
G1 X110.11 Y89.145 E16.38719
G1 X109.848 Y90.25 E16.44385
G1 X109.637 Y90.968 E16.48118
G1 X109.35 Y91.659 E16.51851
G1 X108.992 Y92.315 E16.5558
G1 X108.565 Y92.929 E16.59311
G1 X108.075 Y93.495 E16.63046
G1 X107.821 Y93.732 E16.64779
G1 X107.964 Y93.843 E16.65682
G1 X108.53 Y94.332 E16.69414
G1 X109.049 Y94.876 E16.73165
G1 X109.384 Y95.267 E16.75734
G1 X109.878 Y95.969 E16.80016
G1 X110.032 Y96.219 E16.81481
G1 X110.464 Y97.037 E16.86096
G1 X110.702 Y97.637 E16.89317
G1 X110.793 Y97.902 E16.90715
G1 X110.987 Y98.575 E16.94209
G1 X111.134 Y99.42 E16.98488
G1 X111.165 Y99.698 E16.99883
G1 X111.208 Y100.496 E17.0387
G1 X111.162 Y101.296 E17.07868
G1 X111.13 Y101.574 E17.09264
G1 X111.024 Y102.226 E17.1256
G1 X110.776 Y103.117 E17.17174
G1 X110.677 Y103.399 E17.18665
G1 X110.392 Y104.09 E17.22394
G1 X110.049 Y104.723 E17.25986
G1 X109.896 Y104.974 E17.27453
G1 X109.473 Y105.591 E17.31185
G1 X109.1 Y106.038 E17.34089
G1 X108.872 Y106.289 E17.35781
G1 X108.44 Y106.725 E17.38843
G1 X108.106 Y107.007 E17.41024
G1 X108.335 Y107.482 E17.43655
G1 X108.585 Y108.187 E17.47387
G1 X108.759 Y108.915 E17.51121
G1 X108.854 Y109.657 E17.54853
G1 X108.864 Y110.158 E17.57353
G1 X109.171 Y110.815 E17.60971
G1 X110.078 Y113.236 E17.73869
G1 X110.303 Y113.95 E17.77604
G1 X110.45 Y114.683 E17.81334
G1 X110.518 Y115.428 E17.85066
G1 X110.519 Y115.936 E17.87601
G1 X110.437 Y118.289 E17.99347
G1 X110.344 Y119.209 E18.0396
G1 X110.122 Y120.526 E18.10624
G1 X109.958 Y121.255 E18.14351
G1 X109.772 Y121.824 E18.17338
G1 X109.362 Y122.915 E18.23153
G1 X109.061 Y123.601 E18.2689
G1 X108.69 Y124.25 E18.3062
G1 X108.251 Y124.856 E18.34353
G1 X107.75 Y125.411 E18.38083
G1 X106.925 Y126.115 E18.43494
G1 X105.83 Y126.911 E18.50248
G1 X105.202 Y127.318 E18.53981
G1 X104.535 Y127.656 E18.57712
G1 X103.835 Y127.92 E18.61444
G1 X103.111 Y128.108 E18.65176
G1 X102.371 Y128.218 E18.68909
G1 X101.714 Y128.249 E18.7219
G1 X100.362 Y128.249 E18.78935
G1 X99.615 Y128.209 E18.82667
G1 X98.877 Y128.09 E18.86397
G1 X98.155 Y127.892 E18.90132
G1 X97.459 Y127.619 E18.93862
G1 X96.796 Y127.272 E18.97595
G1 X96.243 Y126.909 E19.00895
G1 X95.148 Y126.112 E19.07652
G1 X94.567 Y125.64 E19.11387
G1 X94.04 Y125.109 E19.15119
G1 X93.573 Y124.524 E19.18854
G1 X93.171 Y123.893 E19.22586
G1 X92.839 Y123.223 E19.26317
G1 X92.61 Y122.617 E19.29549
G1 X92.192 Y121.332 E19.36291
G1 X91.999 Y120.61 E19.40019
G1 X91.884 Y119.87 E19.43755
G1 X91.849 Y119.123 E19.47486
G1 X91.894 Y118.376 E19.5122
G1 X92.018 Y117.639 E19.54948
G1 X92.072 Y117.442 E19.55967
G1 X91.579 Y117.307 E19.58518
G1 X90.883 Y117.034 E19.62247
G1 X90.22 Y116.687 E19.65981
G1 X89.597 Y116.272 E19.69715
G1 X89.106 Y115.869 E19.72885
G1 X87.557 Y114.476 E19.83278
G1 X86.499 Y113.702 E19.89818
G1 X85.92 Y113.229 E19.93548
G1 X85.395 Y112.696 E19.9728
G1 X84.929 Y112.111 E20.01012
G1 X84.529 Y111.479 E20.04743
G1 X84.198 Y110.808 E20.08476
G1 X84.054 Y110.427 E20.10508
G1 X83.976 Y110.363 E20.11011
G1 X83.449 Y109.832 E20.14744
G1 X82.982 Y109.248 E20.18474
G1 X82.579 Y108.618 E20.22206
G1 X82.246 Y107.948 E20.25938
G1 X82.018 Y107.343 E20.29164
G1 X81.614 Y106.104 E20.35666
G1 X81.483 Y105.615 E20.38191
G1 X81.24 Y105.177 E20.4069
G1 X80.881 Y104.286 E20.45483
G1 X80.475 Y103.039 E20.52025
G1 X80.282 Y102.316 E20.55759
G1 X80.167 Y101.577 E20.5949
G1 X80.131 Y100.83 E20.63221
G1 X80.176 Y100.083 E20.66955
G1 X80.299 Y99.346 E20.70683
G1 X80.475 Y98.703 E20.74008
G1 X80.881 Y97.457 E20.80546
